!!!!SEGMENT: pl-stab--4a--001-003_dankowski-adalbert--vesper-beate-marie-vir-laudate-pueri.krn
!!!cenid: 18xx:3492
!!!COM: Dankowski, Adalbert
!!!COM-rismid: pe30000793
!!!CDT: ~1760-~1836
!!!CNT: Polish
!!!OPR: Vesper Beate Marie Vir
!!!OTL: Laudate pueri
!!!OMV: 003
!!!PDT:
!!!AGN: Sacred; Vespers
!!!SMS-siglum: PL-STAb
!!!SMS-shelfmark: 4a
!!!SMS-shelfwork: 001-003 M
!!!SMS-variant:
!!!SMS-altvar:
!!!NIFC-rismid: 301050556
!!!URL-scan: https://repozytorium.nifc.pl/islandora/object/pl-stab%3A1091/datastream/PDF/view
!!!ONB-nifc: UWAGA: części Nieszporów: 1. Domine ad adjuvandum, 2. Dixit Dominus, 3. Laudate pueri, 4. Laetatus sum, 5. Nisi Dominus, 6. Lauda Jerusalem, 7. Magnificat, 8. Et misericordia, 9. Gloria. UWAGA: Na f. 1v okładki zapisany głos org niezidentyfikowanych nieszporów
!!!key:
**kern	**fba	**dynam	**kern	**dynam	**kern	**dynam	**kern	**text	**kern	**text	**kern	**text	**kern	**text	**kern	**kern
*	*	*	*group3	*	*group3	*	*group2	*	*group2	*	*group2	*	*group2	*	*group1	*group1
*part9	*	*part9	*part8	*part8	*part7	*part7	*part6	*part6	*part5	*part5	*part4	*part4	*part3	*part3	*part2	*part1
*staff9	*	*	*staff8	*	*staff7	*	*staff6	*staff6	*staff5	*staff5	*staff4	*staff4	*staff3	*staff3	*staff2	*staff1
*I"Organo	*	*	*I"Violino Secundo	*	*I"Violino Primo	*	*I"Baſso	*	*I"Tenor	*	*I"Alto	*	*I"Canto	*	*I"Cornu Secundo Ex D.	*I"Cornu Primo Ex D:
*I'org	*	*	*I'vl 2	*	*I'vl 1	*	*I'B	*	*I'T	*	*I'A	*	*I'S	*	*I'cor 2 in D	*I'cor 1 in D
*Iorgan	*	*	*Ivioln	*	*Ivioln	*	*Ibass	*	*Itenor	*	*Ialto	*	*Isoprn	*	*Icor	*Icor
*ICklav	*	*	*ICstr	*	*ICstr	*	*ICvox	*	*ICvox	*	*ICvox	*	*ICvox	*	*ICbras	*ICbras
*IGcont	*	*	*IGacmp	*	*IGacmp	*	*IGcoro	*	*IGcoro	*	*IGcoro	*	*IGcoro	*	*IGacmp	*IGacmp
*clefF4	*	*	*clefG2	*	*clefG2	*	*clefF4	*	*clefC4	*	*clefC3	*	*clefC1	*	*clefG2	*clefG2
*	*	*	*	*	*	*	*	*	*	*	*	*	*	*	*ITrd6c10	*ITrd6c10
*k[f#]	*	*	*k[f#]	*	*k[f#]	*	*k[f#]	*	*k[f#]	*	*k[f#]	*	*k[f#]	*	*k[f#]	*k[f#]
*G:	*	*	*G:	*	*G:	*	*G:	*	*G:	*	*G:	*	*G:	*	*G:	*G:
*M3/4	*	*	*M3/4	*	*M3/4	*	*M3/4	*	*M3/4	*	*M3/4	*	*M3/4	*	*M3/4	*M3/4
=1	=1	=1	=1	=1	=1	=1	=1	=1	=1	=1	=1	=1	=1	=1	=1	=1
*	*	*	*	*	*2\right	*	*	*	*	*	*	*	*	*	*	*
!	!	!	!	!	!	!	!	!	!LO:TX:b:t=25.	!	!	!	!	!	!	!
!LO:TX:a:i:t=allo moder&colon;	!	!	!LO:TX:a:i:t=allo Moderato	!	!LO:TX:a:i:t=allo Mode&colon;	!	!LO:TX:a:i:t=allo moderato Solo	!	!LO:TX:a:i:t=allo Moderato.	!	!LO:TX:a:i:t=Allo moderato	!	!LO:TX:a:i:t=Allo Moderato	!	!LO:TX:a:i:t=Laudate \nPueri \nTacet	!LO:TX:a:i:t=Laudate Pueri Tacet
8GG/L	.	.	8d/L	p	2b\	p	4G\	Lau-	0.r	.	2.r	.	0.r	.	2.ryy	2.ryy
8GG/	.	.	8d/	.	.	.	.	.	.	.	.	.	.	.	.	.
8BB/	.	.	8d/	.	.	.	4G\	-da-	.	.	.	.	.	.	.	.
8BB/	.	.	8d/	.	.	.	.	.	.	.	.	.	.	.	.	.
.	.	.	.	.	16qqdd/	.	.	.	.	.	.	.	.	.	.	.
8D/	.	.	8d/	.	8cc\L	.	4A\	-te	.	.	.	.	.	.	.	.
8D/J	.	.	8d/J	.	16b\L	.	.	.	.	.	.	.	.	.	.	.
.	.	.	.	.	16cc\JJ	.	.	.	.	.	.	.	.	.	.	.
=2	=2	=2	=2	=2	=2	=2	=2	=2	=2	=2	=2	=2	=2	=2	=2	=2
!LO:TX:a:i:t=Solo	!	!	!	!	!	!	!	!	!	!	!	!	!	!	!	!
4G\	.	.	4.b/	.	8.dd\L	.	8.B\	pu-	.	.	2.r	.	.	.	2.ryy	2.ryy
.	.	.	.	.	16ee\Jk	.	16c\	-e-	.	.	.	.	.	.	.	.
4GG/	.	.	.	.	8dd\L	.	4B\	-ri	.	.	.	.	.	.	.	.
.	.	.	16g/LL	.	16b\L	.	.	.	.	.	.	.	.	.	.	.
.	.	.	16a/JJ	.	16cc\JJ	.	.	.	.	.	.	.	.	.	.	.
4r	.	.	8b/L	.	16dd\LL	.	4r	.	.	.	.	.	.	.	.	.
.	.	.	.	.	16ee\	.	.	.	.	.	.	.	.	.	.	.
.	.	.	8b/J	.	16ff#\	.	.	.	.	.	.	.	.	.	.	.
.	.	.	.	.	16gg\JJ	.	.	.	.	.	.	.	.	.	.	.
=3	=3	=3	=3	=3	=3	=3	=3	=3	=3	=3	=3	=3	=3	=3	=3	=3
4E\	6	.	4g/	.	8dd\L	.	8B\L	Lau-	.	.	2.r	.	.	.	2.ryy	2.ryy
.	.	.	.	.	8b\	.	8G\J	.	.	.	.	.	.	.	.	.
4C/	.	.	4e/	.	8ee\	.	8c\L	-da-	.	.	.	.	.	.	.	.
.	.	.	.	.	8cc\	.	8A\J	.	.	.	.	.	.	.	.	.
4D\	.	.	4d/	.	8b\	.	8G\L	-te	.	.	.	.	.	.	.	.
.	.	.	.	.	8a\J	.	8F#\J	.	.	.	.	.	.	.	.	.
=4	=4	=4	=4	=4	=4	=4	=4	=4	=4	=4	=4	=4	=4	=4	=4	=4
4GG/	.	.	4d/	.	4b\	.	8G\	Do-	.	.	2.r	.	.	.	2.ryy	2.ryy
.	.	.	.	.	.	.	8G\	-mi-	.	.	.	.	.	.	.	.
8r	.	.	8r	.	8r	.	4G\	-num	.	.	.	.	.	.	.	.
8G\L	.	.	8d/L	.	8b\L	.	.	.	.	.	.	.	.	.	.	.
8G\	.	.	8d/	.	8b\	.	8r	.	.	.	.	.	.	.	.	.
8G\J	.	.	8d/J	.	8b\J	.	8G\	lau-	.	.	.	.	.	.	.	.
=5	=5	=5	=5	=5	=5	=5	=5	=5	=5	=5	=5	=5	=5	=5	=5	=5
4D\	.	.	4f#/	.	4a/	.	8F#\L	-da-	0.r	.	2.r	.	0.r	.	2.ryy	2.ryy
.	.	.	.	.	.	.	8A\J	.	.	.	.	.	.	.	.	.
8r	.	.	8r	.	8r	.	4D\	-te	.	.	.	.	.	.	.	.
8D\L	.	.	8f#/L	.	8a/L	.	.	.	.	.	.	.	.	.	.	.
!	!	!	!	!	!	!	!LO:LB:g=original	!	!	!	!	!	!	!	!	!
8D\	.	.	8f#/	.	8a/	.	8r	.	.	.	.	.	.	.	.	.
8D\J	.	.	8f#/J	.	8a/J	.	8F#\	lau-	.	.	.	.	.	.	.	.
=6	=6	=6	=6	=6	=6	=6	=6	=6	=6	=6	=6	=6	=6	=6	=6	=6
4G\	.	.	4g/	.	4b\	.	8G\L	-da-	.	.	2.r	.	.	.	2.ryy	2.ryy
.	.	.	.	.	.	.	8B\J	.	.	.	.	.	.	.	.	.
8r	.	.	8r	.	8r	.	4D\	-te	.	.	.	.	.	.	.	.
8G\L	.	.	8d/L	.	8b\L	.	.	.	.	.	.	.	.	.	.	.
8G\	.	.	8d/	.	8b\	.	8r	.	.	.	.	.	.	.	.	.
*	*	*	*	*	*	*	*	*ij	*	*	*	*	*	*	*	*
8G\J	.	.	8d/J	.	8b\J	.	8G\	lau-	.	.	.	.	.	.	.	.
=7	=7	=7	=7	=7	=7	=7	=7	=7	=7	=7	=7	=7	=7	=7	=7	=7
8C/L	6_	.	8e/L	.	16cc\LL	.	16A\LL	-da-	.	.	2.r	.	.	.	2.ryy	2.ryy
.	.	.	.	.	16b\	.	16G\JJ	.	.	.	.	.	.	.	.	.
8C/	.	.	8e/	.	16cc\	.	16A\LL	-te	.	.	.	.	.	.	.	.
*	*	*	*	*	*	*	*	*Xij	*	*	*	*	*	*	*	*
.	.	.	.	.	16dd\JJ	.	16B\JJ	.	.	.	.	.	.	.	.	.
8C/	.	.	8e/	.	4cc\	.	4A\	No-	.	.	.	.	.	.	.	.
8C/	.	.	8e/	.	.	.	.	.	.	.	.	.	.	.	.	.
8C#X/	5	.	8e/	.	4b\	.	4G\	-m(in)e	.	.	.	.	.	.	.	.
8C#/J	.	.	8e/J	.	.	.	.	.	.	.	.	.	.	.	.	.
=8	=8	=8	=8	=8	=8	=8	=8	=8	=8	=8	=8	=8	=8	=8	=8	=8
8D/L	4_	.	4d/	.	8b\L	.	8G\	Do-	.	.	2.r	.	.	.	2.ryy	2.ryy
16D/L	.	.	.	.	16a\L	.	8G\	-mi-	.	.	.	.	.	.	.	.
16C#X/JJ	3	.	.	.	16b\JJ	.	.	.	.	.	.	.	.	.	.	.
8D/L	.	.	4d/	.	4a/	.	4F#\	-ni	.	.	.	.	.	.	.	.
8Cn/	.	.	.	.	.	.	.	.	.	.	.	.	.	.	.	.
8BB/	.	.	4r	.	4r	.	4r	.	.	.	.	.	.	.	.	.
!	!	!	!	!	!	!	!	!	!	!	!	!	!LO:TX:a:i:t=Solo	!	!	!
8AA/J	.	.	.	.	.	.	.	.	.	.	.	.	.	.	.	.
!	!	!	!LO:LB:g=original	!	!LO:LB:g=original	!	!	!	!	!	!	!	!	!	!	!
=9	=9	=9	=9	=9	=9	=9	=9	=9	=9	=9	=9	=9	=9	=9	=9	=9
!	!	!	!	!	!	!	!LO:TX:a:t=alto:color=grey	!	!	!	!LO:TX:a:i:rj:t=Solo	!	!	!	!	!
!	!	!	!	!	!	!	!LO:TX:b:t=17	!	!	!	!	!	!	!	!	!
4GG/	.	.	4b/	.	4dd\	.	0.r	.	0.r	.	4b\	Sit	4dd\	Sit	2.ryy	2.ryy
4G\	.	.	4b/	.	4dd\	.	.	.	.	.	4b\	No-	4dd\	no-	.	.
4r	.	.	4b/	.	4dd\	.	.	.	.	.	4b\	-men	4dd\	-men	.	.
!LO:LB:g=original	!	!	!	!	!	!	!	!	!	!	!	!	!	!	!	!
=10	=10	=10	=10	=10	=10	=10	=10	=10	=10	=10	=10	=10	=10	=10	=10	=10
*	*	*	*	*	*	*	*	*	*	*	*2\right	*	*2\right	*	*	*
8r	.	.	2a/	.	4.cc\	.	.	.	.	.	2a\	Do-	2cc\	Do-	2.ryy	2.ryy
16D\LL	7	.	.	.	.	.	.	.	.	.	.	.	.	.	.	.
16E\JJ	.	.	.	.	.	.	.	.	.	.	.	.	.	.	.	.
8F#\L	.	.	.	.	.	.	.	.	.	.	.	.	.	.	.	.
8G\	.	.	.	.	16b\LL	.	.	.	.	.	.	.	.	.	.	.
.	.	.	.	.	16cc\JJ	.	.	.	.	.	.	.	.	.	.	.
8A\	.	.	8b/L	.	8dd\L	.	.	.	.	.	8b\L	-mi-	8dd\L	-mi-	.	.
8F#\J	.	.	8a/J	.	8cc\J	.	.	.	.	.	8a\J	.	8cc\J	.	.	.
=11	=11	=11	=11	=11	=11	=11	=11	=11	=11	=11	=11	=11	=11	=11	=11	=11
4G\	.	.	4g/	.	4b\	.	.	.	.	.	4g\	-ni	4b\	-ni	2.ryy	2.ryy
4GG/	.	.	4b/	.	4dd\	.	.	.	.	.	4b\	be-	4dd\	Be-	.	.
4r	.	.	4b/	.	4dd\	.	.	.	.	.	4b\	-ne-	4dd\	-ne-	.	.
=12	=12	=12	=12	=12	=12	=12	=12	=12	=12	=12	=12	=12	=12	=12	=12	=12
8r	.	.	2a/	.	4.cc\	.	.	.	.	.	2a\	-dic-	2cc\	-dic-	2.ryy	2.ryy
16D\LL	7	.	.	.	.	.	.	.	.	.	.	.	.	.	.	.
16E\JJ	.	.	.	.	.	.	.	.	.	.	.	.	.	.	.	.
8F#\L	.	.	.	.	.	.	.	.	.	.	.	.	.	.	.	.
8G\	.	.	.	.	16b\LL	.	.	.	.	.	.	.	.	.	.	.
.	.	.	.	.	16cc\JJ	.	.	.	.	.	.	.	.	.	.	.
8A\	.	.	8b/L	.	8dd\L	.	.	.	.	.	8b\L	.	8dd\L	.	.	.
8F#\J	.	.	8a/J	.	8cc\J	.	.	.	.	.	8a\J	.	8cc\J	.	.	.
=13	=13	=13	=13	=13	=13	=13	=13	=13	=13	=13	=13	=13	=13	=13	=13	=13
4G\	.	.	4g/	.	4b\	.	0.r	.	0.r	.	4g\	-tum	4b\	-tum	2.ryy	2.ryy
4GG/	.	.	4b\	.	4dd\	.	.	.	.	.	4b\	ex	4dd\	ex	.	.
4r	.	.	4b\	.	4dd\	.	.	.	.	.	4b\	hoc	4dd\	hoc	.	.
=14	=14	=14	=14	=14	=14	=14	=14	=14	=14	=14	=14	=14	=14	=14	=14	=14
*	*	*	*2\right	*	*	*	*	*	*	*	*	*	*	*	*	*
8r	.	.	2cc\	.	2ee\	.	.	.	.	.	2cc\	nunc	2ee\	nunc	2.ryy	2.ryy
8c\	3_	.	.	.	.	.	.	.	.	.	.	.	.	.	.	.
8B\L	.	.	.	.	.	.	.	.	.	.	.	.	.	.	.	.
8A\	.	.	.	.	.	.	.	.	.	.	.	.	.	.	.	.
8G\	.	.	8b\L	.	8dd\L	.	.	.	.	.	8b\L	et	8dd\L	et	.	.
8F#\J	X	.	8cc\J	.	8ee\J	.	.	.	.	.	8cc\J	.	8ee\J	.	.	.
=15	=15	=15	=15	=15	=15	=15	=15	=15	=15	=15	=15	=15	=15	=15	=15	=15
4G\	.	.	4.b/	.	4.dd\	.	.	.	.	.	(4.b\	us-	(4.dd\	us-	2.ryy	2.ryy
4D\	6	.	.	.	.	.	.	.	.	.	.	.	.	.	.	.
.	5	.	8a/	.	8cc\	.	.	.	.	.	8a\)	.	8cc\)	.	.	.
4E\	.	.	4g/	.	4b\	.	.	.	.	.	4g\	-que	4b\	-que	.	.
!	!	!	!	!	!	!	!	!	!	!	!LO:LB:g=original	!	!LO:LB:g=original	!	!	!
=16	=16	=16	=16	=16	=16	=16	=16	=16	=16	=16	=16	=16	=16	=16	=16	=16
4C/	6	.	4a/	.	8ee\L	.	.	.	.	.	4a\	in	8ee\L	in	2.ryy	2.ryy
.	.	.	.	.	8cc\J	.	.	.	.	.	.	.	8cc\J	.	.	.
!	!	!	!	!	!	!	!	!	!	!	!LO:SIC:v:l:s=Sae-	!	!	!	!	!
4D\	4	.	4g/	.	4b\	.	.	.	.	.	4g\	se-	4b\	Sae-	.	.
4DD/	3	.	4f#/	.	4a\	.	.	.	.	.	4f#\	-cu-	4a\	-cu-	.	.
=17	=17	=17	=17	=17	=17	=17	=17	=17	=17	=17	=17	=17	=17	=17	=17	=17
8GG/L	.	.	4g/	.	4b\	.	0.r	.	0.r	.	4g\	-lum	4b\	-lum	2.ryy	2.ryy
8GG/	.	.	.	.	.	.	.	.	.	.	.	.	.	.	.	.
8BB/	.	.	4r	.	4r	.	.	.	.	.	4r	.	4r	.	.	.
8D/J	.	.	.	.	.	.	.	.	.	.	.	.	.	.	.	.
8G\	.	.	4g/	.	4b\	.	.	.	.	.	4g\	a	4b\	a	.	.
8r	.	.	.	.	.	.	.	.	.	.	.	.	.	.	.	.
=18	=18	=18	=18	=18	=18	=18	=18	=18	=18	=18	=18	=18	=18	=18	=18	=18
*tremolo	*	*	*	*	*	*	*	*	*	*	*	*	*	*	*	*
*2\right	*	*	*	*	*	*	*	*	*	*	*	*	*	*	*	*
8D\L	.	.	2f#/	.	2a/	.	.	.	.	.	2f#\	So-	2a\	So-	2.ryy	2.ryy
8D\	.	.	.	.	.	.	.	.	.	.	.	.	.	.	.	.
8D\	.	.	.	.	.	.	.	.	.	.	.	.	.	.	.	.
8D\	.	.	.	.	.	.	.	.	.	.	.	.	.	.	.	.
8D\	.	.	4a/	.	8dd\L	.	.	.	.	.	4a\	-lis	8dd\L	-lis	.	.
8D\J	.	.	.	.	8cc\J	.	.	.	.	.	.	.	8cc\J	.	.	.
*Xtremolo	*	*	*	*	*	*	*	*	*	*	*	*	*	*	*	*
=19	=19	=19	=19	=19	=19	=19	=19	=19	=19	=19	=19	=19	=19	=19	=19	=19
!LO:TX:t=P:problem=mixed beam	!	!	!	!	!	!	!	!	!	!	!	!	!	!	!	!
8G\L	9_ 4_	.	4.a/	.	(4.cc\	.	.	.	.	.	4.a\	or-	(4.cc\	or-	2.ryy	2.ryy
8G\	.	.	.	.	.	.	.	.	.	.	.	.	.	.	.	.
8G\	.	.	.	.	.	.	.	.	.	.	.	.	.	.	.	.
8G\	.	.	16b/LL	.	16dd\LL	.	.	.	.	.	16b\LL	.	16dd\LL)	.	.	.
.	.	.	16a/JJ	.	16cc\JJ)	.	.	.	.	.	16a\JJ	.	16cc\JJ	.	.	.
8GG/	8_ 3_	.	4g/	.	4b\|	.	.	.	.	.	4g\	-tu	4b\	-tu	.	.
8GG/J	x x	.	.	.	.	.	.	.	.	.	.	.	.	.	.	.
!LO:LB:g=original	!	!	!	!	!LO:LB:g=original	!	!	!	!	!	!	!	!	!	!	!
=20	=20	=20	=20	=20	=20	=20	=20	=20	=20	=20	=20	=20	=20	=20	=20	=20
8G\L	3_	.	8g/L	.	(8b\L	.	.	.	.	.	8g\	us-	8b\	us-	2.ryy	2.ryy
8G\	.	.	8b/J	.	16cc#X\L	.	.	.	.	.	8g\	-que	16cc#X\LL	-que	.	.
.	.	.	.	.	16dd\JJ)	.	.	.	.	.	.	.	16dd\JJ	.	.	.
8G\	6	.	4g/	.	4ee\	.	.	.	.	.	4g\	ad	4ee\	ad	.	.
8G\	.	.	.	.	.	.	.	.	.	.	.	.	.	.	.	.
8G#X\	5	.	4f#/	.	4dd\	.	.	.	.	.	4f#\	oc-	4dd\	oc-	.	.
8G#\J	.	.	.	.	.	.	.	.	.	.	.	.	.	.	.	.
!	!	!	!LO:LB:g=original	!	!	!	!	!	!	!	!	!	!	!	!	!
=21	=21	=21	=21	=21	=21	=21	=21	=21	=21	=21	=21	=21	=21	=21	=21	=21
4A\	4	.	8f#/L	.	8dd\L	.	0.r	.	0.r	.	4f#\	-ca-	4dd\	-ca-	2.ryy	2.ryy
.	.	.	16e/L	.	16cc#X\L	.	.	.	.	.	.	.	.	.	.	.
.	.	.	16f#/JJ	.	16dd\JJ	.	.	.	.	.	.	.	.	.	.	.
4AA/	#	.	4e/	.	4cc#\	.	.	.	.	.	4e\	-sum	4cc#X\	-ſum	.	.
4r	.	.	4g/	.	4ee\	.	.	.	.	.	4g\	lau-	4ee\	lau-	.	.
=22	=22	=22	=22	=22	=22	=22	=22	=22	=22	=22	=22	=22	=22	=22	=22	=22
8r	.	.	2f#/	.	2dd\	.	.	.	.	.	2f#\	-da-	2dd\	-da-	2.ryy	2.ryy
8d\L	3_	.	.	.	.	.	.	.	.	.	.	.	.	.	.	.
8c#X\	.	.	.	.	.	.	.	.	.	.	.	.	.	.	.	.
8B\	.	.	.	.	.	.	.	.	.	.	.	.	.	.	.	.
8A\	.	.	8g/L	.	8ee\L	.	.	.	.	.	8g\	-bi-	8ee\	-bi-	.	.
8G#X\J	X	.	8f#/J	.	8dd\J	.	.	.	.	.	8f#\	-le	8dd\	-le	.	.
=23	=23	=23	=23	=23	=23	=23	=23	=23	=23	=23	=23	=23	=23	=23	=23	=23
!LO:TX:t=P:problem=mixed beam	!	!	!	!	!	!	!	!	!	!	!	!	!	!	!	!
8A\L	#_	.	4.e/	.	4.cc#X\	.	.	.	.	.	2e\	No-	(4.cc#X\	no-	2.ryy	2.ryy
8AA/	.	.	.	.	.	.	.	.	.	.	.	.	.	.	.	.
8A\	x	.	.	.	.	.	.	.	.	.	.	.	.	.	.	.
8Gn\J	.	.	16d/LL	.	16b\LL	.	.	.	.	.	.	.	16b\LL	.	.	.
.	.	.	16e/JJ	.	16cc#\JJ	.	.	.	.	.	.	.	16cc#\JJ)	.	.	.
!	!	!	!	!	!	!	!	!	!	!	!	!	!LO:LB:g=original	!	!	!
8F#\L	6	.	4f#/	.	4dd\	.	.	.	.	.	4f#\	-men	4dd\	-men	.	.
8D\J	.	.	.	.	.	.	.	.	.	.	.	.	.	.	.	.
!	!	!	!	!	!	!	!	!	!	!	!LO:LB:g=original	!	!	!	!	!
=24	=24	=24	=24	=24	=24	=24	=24	=24	=24	=24	=24	=24	=24	=24	=24	=24
!LO:TX:t=P:problem=mixed beam	!	!	!	!	!	!	!	!	!	!	!	!	!	!	!	!
8G\L	6_	.	8b/L	.	8gg\L	.	.	.	.	.	4g\	Do-	(4ee\	Do-	2.ryy	2.ryy
8G\	.	.	16a/L	.	16ff#\L	.	.	.	.	.	.	.	.	.	.	.
.	.	.	16g/JJ	.	16ee\JJ	.	.	.	.	.	.	.	.	.	.	.
8A\	4	.	4f#/	.	4dd\	.	.	.	.	.	4f#\	.	4dd\)	.	.	.
8A\	.	.	.	.	.	.	.	.	.	.	.	.	.	.	.	.
8AA/	3	.	4e/	.	4cc#X\	.	.	.	.	.	4e\	-mi-	4cc#X\	-mi-	.	.
8AA/J	.	.	.	.	.	.	.	.	.	.	.	.	.	.	.	.
=25	=25	=25	=25	=25	=25	=25	=25	=25	=25	=25	=25	=25	=25	=25	=25	=25
!	!	!	!LO:TX:t=P:problem=mixed beam	!	!	!	!	!	!	!	!	!	!	!	!	!
4D\	.	.	8f#/L	.	8dd\L	.	2.r	.	2.r	.	4f#\	ni	4dd\	ni	2.ryy	2.ryy
!	!	!	!	!LO:HP:b:t=cres	!	!	!	!	!	!	!	!	!	!	!	!
.	.	.	8ff#|\	<	8aa|\	.	.	.	.	.	.	.	.	.	.	.
!	!	!	!	!	!	!LO:HP:b:t=cres	!	!	!	!	!	!	!	!	!	!
4r	.	.	8gg|\	.	8bb|\	<	.	.	.	.	4r	.	4r	.	.	.
.	.	.	8ff#|\	.	8aa|\	.	.	.	.	.	.	.	.	.	.	.
4r	.	.	8gg|\	.	8bb|\	.	.	.	.	.	4r	.	4r	.	.	.
.	.	.	8ee|\J	.	8ccc#X|\J	.	.	.	.	.	.	.	.	.	.	.
=26	=26	=26	=26	=26	=26	=26	=26	=26	=26	=26	=26	=26	=26	=26	=26	=26
!LO:TX:a:t=tutti	!	!	!	!LO:DY:a:t=for	!	!LO:DY:b:t=for	!	!	!	!	!	!	!	!	!	!
4D\	.	.	4.ff# 4.a 4.d\	f	4.ddd\	f	4D\	Ex-	4d\	Ex-	4a\	Ex-	4ff#\	Ex-	2.ryy	2.ryy
4D\	.	.	.	.	.	.	4D\	-cel-	4d\	-cel-	4a\	-cel-	4ff#\	-cel-	.	.
.	.	.	16dd\LL	.	16ff#\LL	.	.	.	.	.	.	.	.	.	.	.
.	.	.	16ee\JJ	.	16gg\JJ	.	.	.	.	.	.	.	.	.	.	.
4D\	.	.	8ff#\L	.	8aa\L	.	4D\	-sus	4d\	-sus	4a\	-sus	4ff#\	-sus	.	.
.	.	.	8ff#\J	.	8aa\J	.	.	.	.	.	.	.	.	.	.	.
=27	=27	=27	=27	=27	=27	=27	=27	=27	=27	=27	=27	=27	=27	=27	=27	=27
4d\	4	.	(8.gg\L	.	(8.bb\L	.	4D\	Su-	4d\	Su-	4b\	su-	4gg\	Su-	2.ryy	2.ryy
.	.	.	32ff#\LL	.	32aa\LL	.	.	.	.	.	.	.	.	.	.	.
.	.	.	32gg\JJJ)	.	32bb\JJJ)	.	.	.	.	.	.	.	.	.	.	.
4D\	3	.	8ff#|\L	.	8aa|\L	.	4D\	-per	4d\	-per	4a\	-per	4ff#\	-per	.	.
.	.	.	16ff#\L	.	16ddd\L	.	.	.	.	.	.	.	.	.	.	.
.	.	.	16aa\JJ	.	16ccc#X\JJ	.	.	.	.	.	.	.	.	.	.	.
4r	.	.	16gg\LL	.	16bb\LL	.	4r	.	4r	.	4r	.	4r	.	.	.
.	.	.	16ff#\	.	16aa\	.	.	.	.	.	.	.	.	.	.	.
.	.	.	16ee\	.	16gg\	.	.	.	.	.	.	.	.	.	.	.
.	.	.	16dd\JJ	.	16ff#\JJ	.	.	.	.	.	.	.	.	.	.	.
!	!	!	!	!	!LO:LB:g=original	!	!	!	!	!	!	!	!	!	!	!
=28	=28	=28	=28	=28	=28	=28	=28	=28	=28	=28	=28	=28	=28	=28	=28	=28
4A\	5_ #_	.	4.cc#X\	.	4.ee\	.	8A\	o-	8c#X\	o-	8g\	o-	8ee\	o-	2.ryy	2.ryy
.	.	.	.	.	.	.	8A\	-mnes	8c#\	-mnes	8g\	-mnes	8ee\	-mnes	.	.
4AA/	.	.	.	.	.	.	4A\	gen-	4c#\	gen-	4a\	gen-	4ee\	gen-	.	.
.	.	.	16cc#\LL	.	16ee\LL	.	.	.	.	.	.	.	.	.	.	.
.	.	.	16dd\JJ	.	16ff#\JJ	.	.	.	.	.	.	.	.	.	.	.
4A\	x x	.	8ee\L	.	8gg\L	.	4A\	-tes	4c#\	-tes	4a\	-tes	4ee\	-tes	.	.
.	.	.	8ee\J	.	8gg\J	.	.	.	.	.	.	.	.	.	.	.
=29	=29	=29	=29	=29	=29	=29	=29	=29	=29	=29	=29	=29	=29	=29	=29	=29
4D\	9 4	.	(8.ee\L	.	(8.gg\L	.	8D\	Do-	8A\	Do-	8g\	Do-	8ee\	Do-	2.ryy	2.ryy
.	.	.	.	.	.	.	8D\	-mi-	8A\	-mi-	8g\	-mi-	8ee\	-mi-	.	.
.	.	.	32ff#\LL	.	32ff#\LL	.	.	.	.	.	.	.	.	.	.	.
.	.	.	32ee\JJJ)	.	32gg\JJJ)	.	.	.	.	.	.	.	.	.	.	.
!	!	!	!LO:LB:g=original	!	!	!	!LO:LB:g=original	!	!	!	!	!	!	!	!	!
!	!	!	!LO:TX:t=P:problem=mixded beam	!	!	!	!	!	!	!	!	!	!	!	!	!
4DD/	8 3	.	16dd\LL|	.	16ff#\LL	.	4D\	-nus	4A\	-nus	4f#\	-nus	4dd\	-nus	.	.
.	.	.	16f#/|	.	16dd\	.	.	.	.	.	.	.	.	.	.	.
.	.	.	16g/|	.	16ee\	.	.	.	.	.	.	.	.	.	.	.
.	.	.	16a/JJ|	.	16ff#\JJ	.	.	.	.	.	.	.	.	.	.	.
4r	.	.	16b\LL|	.	16gg\LL	.	4r	.	4r	.	4r	.	4r	.	.	.
.	.	.	16cc#X\|	.	16aa\	.	.	.	.	.	.	.	.	.	.	.
.	.	.	16dd\|	.	16bb\	.	.	.	.	.	.	.	.	.	.	.
.	.	.	16ee\JJ|	.	16ccc#X\JJ	.	.	.	.	.	.	.	.	.	.	.
=30	=30	=30	=30	=30	=30	=30	=30	=30	=30	=30	=30	=30	=30	=30	=30	=30
4D\	.	.	8ff#\L	.	8ddd\L	.	4D\	et	4d\	et	4a\	et	4ff#\	et	2.ryy	2.ryy
.	.	.	16dd\L	.	16ff#\L	.	.	.	.	.	.	.	.	.	.	.
.	.	.	16ee\JJ	.	16gg\JJ	.	.	.	.	.	.	.	.	.	.	.
4D\	.	.	8ff#\L	.	8aa\L	.	4D\	su-	4d\	su-	4a\	su-	4ff#\	su-	.	.
.	.	.	8ff#\	.	8aa\J	.	.	.	.	.	.	.	.	.	.	.
4D\	.	.	8ff#\	.	16aa\LL	.	4D\	-per	4d\	-per	4a\	-per	4ff#\	-per	.	.
.	.	.	.	.	16bb\	.	.	.	.	.	.	.	.	.	.	.
.	.	.	8ff#\J	.	16ccc#X\	.	.	.	.	.	.	.	.	.	.	.
.	.	.	.	.	16ddd\JJ	.	.	.	.	.	.	.	.	.	.	.
=31	=31	=31	=31	=31	=31	=31	=31	=31	=31	=31	=31	=31	=31	=31	=31	=31
4d\	4	.	(8.gg\L	.	(8.bb\L	.	4D\	Cae-	4d\	Cae-	4b\	Cae-	4gg\	Cae-	2.ryy	2.ryy
.	.	.	32ff#\LL	.	32aa\LL	.	.	.	.	.	.	.	.	.	.	.
.	.	.	32gg\JJJ)	.	32bb\JJJ)	.	.	.	.	.	.	.	.	.	.	.
4D\	3	.	8ff#|\L	.	8aa|\L	.	4D\	-los	4d\	-los	4a\	-los	4ff#\	-los	.	.
.	.	.	(16ff#\L	.	16ddd\L	.	.	.	.	.	.	.	.	.	.	.
.	.	.	16aa\JJ)	.	16ccc#X\JJ	.	.	.	.	.	.	.	.	.	.	.
4r	.	.	16gg\LL	.	16bb\LL	.	4r	.	4r	.	4r	.	4r	.	.	.
.	.	.	16ff#\	.	16aa\	.	.	.	.	.	.	.	.	.	.	.
.	.	.	16ee\	.	16gg\	.	.	.	.	.	.	.	.	.	.	.
.	.	.	16dd\JJ	.	16ff#\JJ	.	.	.	.	.	.	.	.	.	.	.
!	!	!	!	!	!	!	!	!	!LO:LB:g=original	!	!LO:LB:g=original	!	!LO:LB:g=original	!	!	!
=32	=32	=32	=32	=32	=32	=32	=32	=32	=32	=32	=32	=32	=32	=32	=32	=32
4A\	#	.	(16cc#X\LL	.	8.ee\L	.	4A\	glo-	4c#X\	glo-	4g\	Glo-	4ee\	Ma-	2.ryy	2.ryy
.	.	.	16b\	.	.	.	.	.	.	.	.	.	.	.	.	.
.	.	.	16cc#\	.	.	.	.	.	.	.	.	.	.	.	.	.
.	.	.	16dd\JJ)	.	16ff#\Jk	.	.	.	.	.	.	.	.	.	.	.
4c#X\	5 3	.	8ee|\L	.	8gg\L	.	4c#X\	-ri-	4A\	-ri-	4g\	-ri-	4ee\	-ri-	.	.
.	.	.	8ee|\	.	8gg\J	.	.	.	.	.	.	.	.	.	.	.
4d\	.	.	8dd|\	.	16ff#\LL	.	4d\	-a	4A\	-a	4f#\	-a	4dd\	-a	.	.
.	.	.	.	.	16dd\	.	.	.	.	.	.	.	.	.	.	.
.	.	.	8dd|\J	.	16aa\	.	.	.	.	.	.	.	.	.	.	.
.	.	.	.	.	16ff#\JJ	.	.	.	.	.	.	.	.	.	.	.
=33	=33	=33	=33	=33	=33	=33	=33	=33	=33	=33	=33	=33	=33	=33	=33	=33
4A\	4	.	8.dd\L	.	8.ff#\L	.	4A\	e-	4A\	e-	4f#\	e-	4dd\	e-	2.ryy	2.ryy
.	.	.	32cc#X\LL	.	32ee\LL	.	.	.	.	.	.	.	.	.	.	.
.	.	.	32dd\JJJ	.	32ff#\JJJ	.	.	.	.	.	.	.	.	.	.	.
!	!	!	!LO:TX:t=P:problem=mixded beam	!	!	!	!	!	!	!	!	!	!	!	!	!
4AA/	#	.	16cc#\LL	.	16ee\LL	.	4AA/	-ius	4A\	-ius	4e\	-ius	4cc#X\	-ius	.	.
.	.	.	16c/	.	16a\	.	.	.	.	.	.	.	.	.	.	.
.	.	.	16d/	.	16b\	.	.	.	.	.	.	.	.	.	.	.
.	.	.	16e/JJ	.	16cc#X\JJ	.	.	.	.	.	.	.	.	.	.	.
!	!	!	!	!	!LO:LB:g=original	!	!	!	!	!	!	!	!	!	!	!
4r	.	.	16f#/LL	.	16dd\LL	.	4r	.	4r	.	4r	.	4r	.	.	.
.	.	.	16g/	.	16ee\	.	.	.	.	.	.	.	.	.	.	.
.	.	.	16a/	.	16ff#\	.	.	.	.	.	.	.	.	.	.	.
.	.	.	16b/JJ	.	16gg\JJ	.	.	.	.	.	.	.	.	.	.	.
=34	=34	=34	=34	=34	=34	=34	=34	=34	=34	=34	=34	=34	=34	=34	=34	=34
*	*	*	*^	*	*	*	*	*	*	*	*	*	*	*	*	*
*	*	*	*	*Xtremolo	*	*	*	*	*	*	*	*	*	*	*	*	*
8C#X/L	6_ 5_	.	16a/LL	16e\LL	.	4.aa\	.	4C#X/	quis	4A\	quis	4g\	Quis	4ee\	Quis	2.ryy	2.ryy
.	.	.	16a/	16e\	.	.	.	.	.	.	.	.	.	.	.	.	.
8C#/	.	.	16a/	16e\	.	.	.	.	.	.	.	.	.	.	.	.	.
.	.	.	16a/JJ	16e\JJ	.	.	.	.	.	.	.	.	.	.	.	.	.
*	*	*	*tremolo	*tremolo	*	*	*	*	*	*	*	*	*	*	*	*	*
8C#/	.	.	16a/LL	16e\LL	.	.	.	4C#/	si-	4A\	si-	4g\	si-	4ee\	Si-	.	.
.	.	.	16a/	16e\	.	.	.	.	.	.	.	.	.	.	.	.	.
8C#/	.	.	16a/	16e\	.	16ee\LL	.	.	.	.	.	.	.	.	.	.	.
.	.	.	16a/JJ	16e\JJ	.	16ff#\JJ	.	.	.	.	.	.	.	.	.	.	.
.	.	.	.	.	.	16qqaa/	.	.	.	.	.	.	.	.	.	.	.
8C#/	.	.	16a/LL	16e\LL	.	8gg\L	.	4C#/	-cut	4A\	-cut	4g\	-cut	4ee\	-cut	.	.
.	.	.	16a/	16e\	.	.	.	.	.	.	.	.	.	.	.	.	.
8C#/J	.	.	16a/	16e\	.	16ff#\L	.	.	.	.	.	.	.	.	.	.	.
.	X X	.	16a/JJ	16e\JJ	.	16ee\JJ	.	.	.	.	.	.	.	.	.	.	.
=35	=35	=35	=35	=35	=35	=35	=35	=35	=35	=35	=35	=35	=35	=35	=35	=35	=35
*tremolo	*	*	*	*	*	*	*	*	*	*	*	*	*	*	*	*	*
8D\L	.	.	16a/LL	16f#\LL	.	8ff#\L	.	4.D\	Do-	4.A\	Do-	4.f#\	Do-	4.dd\	Do-	2.ryy	2.ryy
.	.	.	16a/	16f#\	.	.	.	.	.	.	.	.	.	.	.	.	.
8D\	.	.	16a/	16f#\	.	8aa\J	.	.	.	.	.	.	.	.	.	.	.
.	.	.	16a/JJ	16f#\JJ	.	.	.	.	.	.	.	.	.	.	.	.	.
8D\	.	.	16a/LL	16f#\LL	.	8r	.	.	.	.	.	.	.	.	.	.	.
.	.	.	16a/	16f#\	.	.	.	.	.	.	.	.	.	.	.	.	.
8D\	.	.	16a/	16f#\	.	8aa\L	.	8D\	-mi-	8A\	-mi-	8f#\	-mi-	8dd\	-mi-	.	.
.	.	.	16a/JJ	16f#\JJ	.	.	.	.	.	.	.	.	.	.	.	.	.
8D\	.	.	16a/LL	16f#\LL	.	8ff#\	.	4D\	-nus	4A\	-nus	4f#\	-nus	4dd\	-nus	.	.
.	.	.	16a/	16f#\	.	.	.	.	.	.	.	.	.	.	.	.	.
8D\J	.	.	16a/	16f#\	.	8dd\J	.	.	.	.	.	.	.	.	.	.	.
.	.	.	16a/JJ	16f#\JJ	.	.	.	.	.	.	.	.	.	.	.	.	.
!	!	!	!LO:LB:g=original	!LO:LB:g=original	!	!	!	!	!	!	!	!	!	!	!	!	!
=36	=36	=36	=36	=36	=36	=36	=36	=36	=36	=36	=36	=36	=36	=36	=36	=36	=36
8E\L	6\ 3	.	16a/LL	16g\LL	.	4.cc#X\	.	8E\	De-	8A\	De-	8g\	De-	8cc\	De-	2.ryy	2.ryy
.	.	.	16a/	16g\	.	.	.	.	.	.	.	.	.	.	.	.	.
8E\	.	.	16a/	16g\	.	.	.	8E\	-us	8A\	-us	8g\	-us	8cc\	-us	.	.
.	.	.	16a/JJ	16g\JJ	.	.	.	.	.	.	.	.	.	.	.	.	.
8E\	.	.	16a/LL	16g\LL	.	.	.	4E\	Nos-	4A\	Nos-	4g\	Nos-	4cc\	nos-	.	.
.	.	.	16a/	16g\	.	.	.	.	.	.	.	.	.	.	.	.	.
8E\	.	.	16a/	16g\	.	16dd\LL	.	.	.	.	.	.	.	.	.	.	.
.	.	.	16a/JJ	16g\JJ	.	16ee\JJ	.	.	.	.	.	.	.	.	.	.	.
8E\	.	.	16a/LL	16g\LL	.	16dd\LL	.	4E\	-ter	4A\	-ter	4g\	-ter	4cc\	-ter	.	.
.	.	.	16a/	16g\	.	16cc#\	.	.	.	.	.	.	.	.	.	.	.
8E\J	.	.	16a/	16g\	.	16b\	.	.	.	.	.	.	.	.	.	.	.
.	.	.	16a/JJ	16g\JJ	.	16cc#\JJ	.	.	.	.	.	.	.	.	.	.	.
=37	=37	=37	=37	=37	=37	=37	=37	=37	=37	=37	=37	=37	=37	=37	=37	=37	=37
8F#\L	6 3	.	16a/LL	16f#\LL	.	8cc#X\L	.	4F#\	qui	4A\	qui	4f#\	qui	4dd\	qui	2.ryy	2.ryy
.	.	.	16a/	16f#\	.	.	.	.	.	.	.	.	.	.	.	.	.
8F#\	.	.	16a/	16f#\	.	8dd\J	.	.	.	.	.	.	.	.	.	.	.
.	.	.	16a/JJ	16f#\JJ	.	.	.	.	.	.	.	.	.	.	.	.	.
8F#\	.	.	16a/LL	16f#\LL	.	8r	.	4F#\	in	4A\	in	4f#\	in	4dd\	in	.	.
.	.	.	16a/	16f#\	.	.	.	.	.	.	.	.	.	.	.	.	.
8F#\	.	.	16a/	16f#\	.	8dd\L	.	.	.	.	.	.	.	.	.	.	.
.	.	.	16a/JJ	16f#\JJ	.	.	.	.	.	.	.	.	.	.	.	.	.
!	!	!	!	!	!	!	!	!LO:LB:g=original	!	!	!	!	!	!	!	!	!
8F#\	.	.	16a/LL	16f#\LL	.	8ff#\	.	4F#\	al-	4A\	al-	4f#\	al-	4dd\	al-	.	.
.	.	.	16a/	16f#\	.	.	.	.	.	.	.	.	.	.	.	.	.
8F#\J	.	.	16a/	16f#\	.	8aa\J	.	.	.	.	.	.	.	.	.	.	.
.	.	.	16a/JJ	16f#\JJ	.	.	.	.	.	.	.	.	.	.	.	.	.
=38	=38	=38	=38	=38	=38	=38	=38	=38	=38	=38	=38	=38	=38	=38	=38	=38	=38
8C#X/L	6 5	.	16a/LL	16e\LL	.	4.aa\	.	4C#X/	-tis	4A\	-tis	4g\	-tis	4ee\	-tis	2.ryy	2.ryy
.	.	.	16a/	16e\	.	.	.	.	.	.	.	.	.	.	.	.	.
8C#X/	.	.	16a/	16e\	.	.	.	.	.	.	.	.	.	.	.	.	.
.	.	.	16a/JJ	16e\JJ	.	.	.	.	.	.	.	.	.	.	.	.	.
8C#X/	.	.	16a/LL	16e\LL	.	.	.	4.C#/	ha-	4.A\	ha-	4.g\	ha-	4.ee\	ha-	.	.
.	.	.	16a/	16e\	.	.	.	.	.	.	.	.	.	.	.	.	.
8C#X/	.	.	16a/	16e\	.	16ee\LL	.	.	.	.	.	.	.	.	.	.	.
.	.	.	16a/JJ	16e\JJ	.	16ff#\JJ	.	.	.	.	.	.	.	.	.	.	.
.	.	.	.	.	.	16qqaa/	.	.	.	.	.	.	.	.	.	.	.
8C#X/	.	.	16a/LL	16e\LL	.	8gg\L	.	.	.	.	.	.	.	.	.	.	.
.	.	.	16a/	16e\	.	.	.	.	.	.	.	.	.	.	.	.	.
8C#X/J	.	.	16a/	16e\	.	16ff#\L	.	8C#/	-bi-	8A\	-bi-	8g\	-bi-	8ee\	-bi-	.	.
.	.	.	16a/JJ	16e\JJ	.	16ee\JJ	.	.	.	.	.	.	.	.	.	.	.
*Xtremolo	*	*	*	*	*	*	*	*	*	*	*	*	*	*	*	*	*
!	!	!	!	!	!	!	!	!	!	!	!	!LO:LB:g=original	!	!	!	!	!
=39	=39	=39	=39	=39	=39	=39	=39	=39	=39	=39	=39	=39	=39	=39	=39	=39	=39
8D\L	.	.	16a/LL	16f#\LL	.	8ff#\L	.	4D\	-tat	4A\	-tat	4f#\	-tat	4dd\	-tat	2.ryy	2.ryy
.	.	.	16a/	16f#\	.	.	.	.	.	.	.	.	.	.	.	.	.
8D\	.	.	16a/	16f#\	.	8aa\J	.	.	.	.	.	.	.	.	.	.	.
.	.	.	16a/JJ	16f#\JJ	.	.	.	.	.	.	.	.	.	.	.	.	.
8D\	.	.	16a/LL	16f#\LL	.	8r	.	4D\	ex	4A\	ex	4f#\	ex	4dd\	ex	.	.
.	.	.	16a/	16f#\	.	.	.	.	.	.	.	.	.	.	.	.	.
8D\	.	.	16a/	16f#\	.	8aa\L	.	.	.	.	.	.	.	.	.	.	.
.	.	.	16a/JJ	16f#\JJ	.	.	.	.	.	.	.	.	.	.	.	.	.
8D\	.	.	16a/LL	16f#\LL	.	8ff#\	.	4D\	hu-	4A\	hu-	4f#\	hu-	4dd\	hu-	.	.
.	.	.	16a/	16f#\	.	.	.	.	.	.	.	.	.	.	.	.	.
8D\J	.	.	16a/	16f#\	.	8dd\J	.	.	.	.	.	.	.	.	.	.	.
.	.	.	16a/JJ	16f#\JJ	.	.	.	.	.	.	.	.	.	.	.	.	.
!	!	!	!	!	!	!	!	!	!	!	!	!	!	!LO:PB:g=original	!	!	!
=40	=40	=40	=40	=40	=40	=40	=40	=40	=40	=40	=40	=40	=40	=40	=40	=40	=40
*tremolo	*	*	*	*	*	*	*	*	*	*	*	*	*	*	*	*	*
8E\L	6\ 3	.	16a/LL	16g\LL	.	4.cc#X\	.	8E\	-mi-	8A\	-mi-	8g\	-mi-	8cc\	-mi-	2.ryy	2.ryy
.	.	.	16a/	16g\	.	.	.	.	.	.	.	.	.	.	.	.	.
8E\	.	.	16a/	16g\	.	.	.	8E\	-li-	8A\	-li-	8g\	-li-	8cc\	-li-	.	.
.	.	.	16a/JJ	16g\JJ	.	.	.	.	.	.	.	.	.	.	.	.	.
!	!	!	!	!	!	!	!	!	!	!LO:LB:g=original	!	!	!	!	!	!	!
8E\	.	.	16a/LL	16g\LL	.	.	.	4E\	-a	4A\	-a	4g\	-a	4cc\	-a	.	.
.	.	.	16a/	16g\	.	.	.	.	.	.	.	.	.	.	.	.	.
8E\	.	.	16a/	16g\	.	16dd\LL	.	.	.	.	.	.	.	.	.	.	.
.	.	.	16a/JJ	16g\JJ	.	16ee\JJ	.	.	.	.	.	.	.	.	.	.	.
8E\	.	.	16a/LL	16g\LL	.	16dd\LL	.	4E\	res-	4A\	reſ-	4g\	res-	4cc\	reſ-	.	.
.	.	.	16a/	16g\	.	16cc#\	.	.	.	.	.	.	.	.	.	.	.
8E\J	.	.	16a/	16g\	.	16b\	.	.	.	.	.	.	.	.	.	.	.
.	.	.	16a/JJ	16g\JJ	.	16cc#\JJ	.	.	.	.	.	.	.	.	.	.	.
!	!	!	!	!	!	!LO:LB:g=original	!	!	!	!	!	!	!	!	!	!	!
=41	41	=41	=41	=41	=41	=41	=41	=41	=41	=41	=41	=41	=41	=41	=41	=41	=41
8F#\L	6 3	.	16a/LL	16f#\LL	.	8cc\L	.	4F#\	-pi-	4A\	-pi-	4f#\	-pi-	4dd\	-pi-	2.ryy	2.ryy
.	.	.	16a/	16f#\	.	.	.	.	.	.	.	.	.	.	.	.	.
8F#\	.	.	16a/	16f#\	.	8dd\J	.	.	.	.	.	.	.	.	.	.	.
.	.	.	16a/JJ	16f#\JJ	.	.	.	.	.	.	.	.	.	.	.	.	.
8F#\	.	.	16a/LL	16f#\LL	.	8r	.	4F#\	-cit	4A\	-cit	4f#\	-cit	4dd\	-cit	.	.
.	.	.	16a/	16f#\	.	.	.	.	.	.	.	.	.	.	.	.	.
8F#\	.	.	16a/	16f#\	.	8dd\L	.	.	.	.	.	.	.	.	.	.	.
.	.	.	16a/JJ	16f#\JJ	.	.	.	.	.	.	.	.	.	.	.	.	.
8F#\	.	.	16a/LL	16f#\LL	.	8ff#\	.	4F#\	in	4A\	in	4f#\	in	4dd\	in	.	.
.	.	.	16a/	16f#\	.	.	.	.	.	.	.	.	.	.	.	.	.
8F#\J	.	.	16a/	16f#\	.	8aa\J	.	.	.	.	.	.	.	.	.	.	.
.	.	.	16a/JJ	16f#\JJ	.	.	.	.	.	.	.	.	.	.	.	.	.
*Xtremolo	*	*	*	*	*	*	*	*	*	*	*	*	*	*	*	*	*
*	*	*	*v	*v	*	*	*	*	*	*	*	*	*	*	*	*	*
=42	=42	=42	=42	=42	=42	=42	=42	=42	=42	=42	=42	=42	=42	=42	=42	=42
*	*	*	*	*	*	*	*2\right	*	*	*	*	*	*	*	*	*
8G\L	6_	.	16b\LL	.	8gg\L	.	2G\	Cae-	2B\	Cae-	2g\	Cae-	2ee\	Cae-	2.ryy	2.ryy
.	.	.	16b\	.	.	.	.	.	.	.	.	.	.	.	.	.
8G\	.	.	16b\	.	8ee\J	.	.	.	.	.	.	.	.	.	.	.
.	.	.	16b\JJ	.	.	.	.	.	.	.	.	.	.	.	.	.
8G\	.	.	16b\LL	.	8r	.	.	.	.	.	.	.	.	.	.	.
.	.	.	16b\	.	.	.	.	.	.	.	.	.	.	.	.	.
8G\	.	.	16b\	.	8ee\	.	.	.	.	.	.	.	.	.	.	.
.	.	.	16b\JJ	.	.	.	.	.	.	.	.	.	.	.	.	.
8A\	#	.	16cc#X\LL	.	8.ee\L	.	4A\	-lo	4A\	-lo	4e\	-lo	4cc#X\	-lo	.	.
.	.	.	16cc#\	.	.	.	.	.	.	.	.	.	.	.	.	.
8A\J	.	.	16cc#\	.	.	.	.	.	.	.	.	.	.	.	.	.
.	.	.	16cc#\JJ	.	32ddT\LL	.	.	.	.	.	.	.	.	.	.	.
.	.	.	.	.	32ee\JJJ	.	.	.	.	.	.	.	.	.	.	.
!LO:LB:g=original	!	!	!	!	!	!	!	!	!	!	!	!	!	!	!	!
=43	=43	=43	=43	=43	=43	=43	=43	=43	=43	=43	=43	=43	=43	=43	=43	=43
8B\L	.	.	16f#/LL	.	8ff#\L	.	2B\	et	2B\	et	2f#\	et	2dd\	et	2.ryy	2.ryy
.	.	.	16f#/	.	.	.	.	.	.	.	.	.	.	.	.	.
8B\	.	.	16f#/	.	8dd\J	.	.	.	.	.	.	.	.	.	.	.
.	.	.	16f#/JJ	.	.	.	.	.	.	.	.	.	.	.	.	.
8B\	.	.	16f#/LL	.	8r	.	.	.	.	.	.	.	.	.	.	.
.	.	.	16f#/	.	.	.	.	.	.	.	.	.	.	.	.	.
8B\	.	.	16f#/	.	8dd\	.	.	.	.	.	.	.	.	.	.	.
.	.	.	16f#/JJ	.	.	.	.	.	.	.	.	.	.	.	.	.
8F#\	6	.	16a/LL	.	8.ddT\L	.	4F#\	in	4A\	in	4f#\	in	4dd\	in	.	.
.	.	.	16a/	.	.	.	.	.	.	.	.	.	.	.	.	.
8F#\J	.	.	16a/	.	.	.	.	.	.	.	.	.	.	.	.	.
.	.	.	16a/JJ	.	32cc\LL	.	.	.	.	.	.	.	.	.	.	.
.	.	.	.	.	32dd\JJJ	.	.	.	.	.	.	.	.	.	.	.
*	*	*	*Xtremolo	*	*	*	*	*	*	*	*	*	*	*	*	*
=44	=44	=44	=44	=44	=44	=44	=44	=44	=44	=44	=44	=44	=44	=44	=44	=44
!LO:TX:t=P:problem=mixed beam	!	!	!	!	!	!	!	!	!	!	!	!	!	!	!	!
8G\L	6	.	8b/L	.	16ee\LL	.	4G\	ter-	4B\	ter-	4g\	ter-	4ee\	ter-	2.ryy	2.ryy
.	.	.	.	.	16ff#\	.	.	.	.	.	.	.	.	.	.	.
8G\	.	.	8g/J	.	16gg\	.	.	.	.	.	.	.	.	.	.	.
.	.	.	.	.	16ee\JJ	.	.	.	.	.	.	.	.	.	.	.
8A\	4	.	4f#/	.	4dd\	.	4A\	.	2A\	.	4f#\	.	4dd\	.	.	.
8A\	.	.	.	.	.	.	.	.	.	.	.	.	.	.	.	.
8AA/	#	.	4e/	.	4cc#X\	.	4AA/	.	.	.	4e\	.	4cc#X\	.	.	.
8AA/J	.	.	.	.	.	.	.	.	.	.	.	.	.	.	.	.
=45	=45	=45	=45	=45	=45	=45	=45	=45	=45	=45	=45	=45	=45	=45	=45	=45
!LO:TX:a:i:t=Solo	!	!	!LO:TX:a:i:t=Solo	!	!LO:TX:a:i:t=Solo	!	!	!	!	!	!	!	!	!	!	!
4D\	.	.	4.f#/	.	4.dd\	.	4D\	-ra	4A\	-ra	4f#\	-ra	4dd\	-ra	2.ryy	2.ryy
4r	.	.	.	.	.	.	4r	.	4r	.	4r	.	4r	.	.	.
.	.	.	(16f#/LL	.	16ff#\LL	.	.	.	.	.	.	.	.	.	.	.
.	.	.	16e/JJ)	.	16ee\JJ	.	.	.	.	.	.	.	.	.	.	.
4F#\	6 n5r	.	8e|/L	.	8dd|\L	.	4r	.	4r	.	4r	.	4r	.	.	.
.	.	.	8cn|/J	.	8ccn|\J	.	.	.	.	.	.	.	.	.	.	.
!	!	!	!	!	!	!	!LO:LB:g=original	!	!	!	!	!	!	!	!	!
=46	=46	=46	=46	=46	=46	=46	=46	=46	=46	=46	=46	=46	=46	=46	=46	=46
!	!	!	!	!	!	!	!LO:TX:b:t=21	!	!	!	!	!	!LO:TX:a:t=alto Solo	!	!	!
4G\	3	.	(8c/L	.	(8cc\L	.	0.r	.	1.r	.	1.r	.	0.r	.	2.ryy	2.ryy
.	.	.	8B/)	.	8b\)	.	.	.	.	.	.	.	.	.	.	.
4E\	6\ 5	.	(8B/	.	(8b\	.	.	.	.	.	.	.	.	.	.	.
.	.	.	8c#X/J)	.	8cc#X\)	.	.	.	.	.	.	.	.	.	.	.
!	!	!	!LO:LB:g=original	!	!	!	!	!	!	!	!	!	!	!	!	!
4F#\	5	.	(8c#/L	.	(8cc#\	.	.	.	.	.	.	.	.	.	.	.
.	6	.	8d/J)	.	8dd\J)	.	.	.	.	.	.	.	.	.	.	.
=47	=47	=47	=47	=47	=47	=47	=47	=47	=47	=47	=47	=47	=47	=47	=47	=47
4G\	6	.	(8e/L	.	16ee\LL	.	.	.	.	.	.	.	.	.	2.ryy	2.ryy
.	.	.	.	.	16ff#\	.	.	.	.	.	.	.	.	.	.	.
.	.	.	8g/J)	.	16gg\	.	.	.	.	.	.	.	.	.	.	.
.	.	.	.	.	16ee\JJ	.	.	.	.	.	.	.	.	.	.	.
4A\	4	.	4f#/	.	4dd\	.	.	.	.	.	.	.	.	.	.	.
4AA/	#	.	4e/	.	4cc#X\	.	.	.	.	.	.	.	.	.	.	.
=48	=48	=48	=48	=48	=48	=48	=48	=48	=48	=48	=48	=48	=48	=48	=48	=48
4D\	.	.	4f#/	.	8dd\L	.	.	.	2.r	.	2.r	.	.	.	2.ryy	2.ryy
.	.	.	.	.	8ff#\J	.	.	.	.	.	.	.	.	.	.	.
4DD/	.	.	4f#/	.	4dd\	.	.	.	.	.	.	.	.	.	.	.
4r	.	.	4r	.	4r	.	.	.	.	.	.	.	.	.	.	.
!	!	!	!	!	!LO:LB:g=original	!	!	!	!	!	!	!	!	!	!	!
=49	=49	=49	=49	=49	=49	=49	=49	=49	=49	=49	=49	=49	=49	=49	=49	=49
!	!	!LO:DY:a:t=p.	!	!LO:DY:t=p.	!	!LO:DY:a:t=p.	!	!	!LO:TX:a:i:rj:t=Solo	!	!LO:TX:a:i:t=Solo	!	!	!	!	!
8D\L	.	p	2dd\	p	2ff#\	p	.	.	2d\	Suſ-	2f#\	Su-	.	.	2.ryy	2.ryy
8D\	.	.	.	.	.	.	.	.	.	.	.	.	.	.	.	.
8D\	.	.	.	.	.	.	.	.	.	.	.	.	.	.	.	.
8D\	.	.	.	.	.	.	.	.	.	.	.	.	.	.	.	.
8D\	.	.	8ff#\L	.	8aa\L	.	.	.	8f#\L	-cit-	8a\L	-sci-	.	.	.	.
8D\J	.	.	8ee\J	.	8gg\J	.	.	.	8e\J	.	8g\J	.	.	.	.	.
!	!	!	!	!	!	!	!	!	!	!	!LO:LB:g=original	!	!	!	!	!
=50	=50	=50	=50	=50	=50	=50	=50	=50	=50	=50	=50	=50	=50	=50	=50	=50
*tremolo	*	*	*	*	*	*	*	*	*	*	*	*	*	*	*	*
8D\L	.	.	2dd\	.	2ff#\	.	0.r	.	2d\	-ans	2f#\	-tans	0.r	.	2.ryy	2.ryy
8D\	.	.	.	.	.	.	.	.	.	.	.	.	.	.	.	.
8D\	.	.	.	.	.	.	.	.	.	.	.	.	.	.	.	.
8D\	.	.	.	.	.	.	.	.	.	.	.	.	.	.	.	.
8D\	.	.	4ff#\	.	4aa\	.	.	.	4f#\	a	4a\	a	.	.	.	.
8D\J	.	.	.	.	.	.	.	.	.	.	.	.	.	.	.	.
*Xtremolo	*	*	*	*	*	*	*	*	*	*	*	*	*	*	*	*
=51	=51	=51	=51	=51	=51	=51	=51	=51	=51	=51	=51	=51	=51	=51	=51	=51
8G\L	6_	.	(4.ee\	.	4.gg\	.	.	.	4.e\	ter-	(4.g\	ter-	.	.	2.ryy	2.ryy
8G\	.	.	.	.	.	.	.	.	.	.	.	.	.	.	.	.
8G\	.	.	.	.	.	.	.	.	.	.	.	.	.	.	.	.
8G\	.	.	8gg\L)	.	8bb\L	.	.	.	8g\	.	8b\)	.	.	.	.	.
8A\	#	.	(8cc#X\	.	8ee\	.	.	.	8c#X\L	-ra	8e\L	-ra	.	.	.	.
8A\J	.	.	8ee\J)	.	8gg\J	.	.	.	8e\J	.	8g\J	.	.	.	.	.
=52	=52	=52	=52	=52	=52	=52	=52	=52	=52	=52	=52	=52	=52	=52	=52	=52
*tremolo	*	*	*	*	*	*	*	*	*	*	*	*	*	*	*	*
8D\L	.	.	8ee\L	.	8gg\L	.	.	.	8e\	in-	8g\	in-	.	.	2.ryy	2.ryy
8D\	.	.	8dd\J	.	8ff#\J	.	.	.	8d\	-o-	8f#\	-o-	.	.	.	.
!	!	!	!	!	!	!	!	!	!LO:LB:g=original	!	!	!	!	!	!	!
8D\	.	.	4dd\	.	4ff#\	.	.	.	4d\	-pem	4f#\	-pem	.	.	.	.
8D\	.	.	.	.	.	.	.	.	.	.	.	.	.	.	.	.
8D\	.	.	4ff#\	.	4aa\	.	.	.	4f#\	a	4a\	a	.	.	.	.
8D\J	.	.	.	.	.	.	.	.	.	.	.	.	.	.	.	.
*Xtremolo	*	*	*	*	*	*	*	*	*	*	*	*	*	*	*	*
=53	=53	=53	=53	=53	=53	=53	=53	=53	=53	=53	=53	=53	=53	=53	=53	=53
8G\L	6_	.	(4.ee\	.	4.gg\	.	.	.	(4.e\	ter-	(4.g\	ter-	.	.	2.ryy	2.ryy
8G\	.	.	.	.	.	.	.	.	.	.	.	.	.	.	.	.
8G\	.	.	.	.	.	.	.	.	.	.	.	.	.	.	.	.
8G\	.	.	8gg\L)	.	8bb\L	.	.	.	8g\)	.	8b\)	.	.	.	.	.
8A\	#	.	(8cc#X\	.	8ee\	.	.	.	8c#X\L	-ra	8e\L	-ra	.	.	.	.
8A\J	.	.	8ee\J)	.	8gg\J	.	.	.	8e\J	.	8g\J	.	.	.	.	.
!LO:LB:g=original	!	!	!	!	!	!	!	!	!	!	!	!	!	!	!	!
=54	=54	=54	=54	=54	=54	=54	=54	=54	=54	=54	=54	=54	=54	=54	=54	=54
*tremolo	*	*	*	*	*	*	*	*	*	*	*	*	*	*	*	*
8D\L	.	.	8ee\L	.	8gg\L	.	0.r	.	8e\	in-	8g\	in-	0.r	.	2.ryy	2.ryy
8D\	.	.	8dd\J	.	8ff#\J	.	.	.	8d\	-o-	8f#\	-o-	.	.	.	.
8D\	.	.	4dd\	.	4ff#\	.	.	.	4d\	-pem	4f#\	-pem	.	.	.	.
8D\	.	.	.	.	.	.	.	.	.	.	.	.	.	.	.	.
8D\	.	.	4ff#\	.	4aa\	.	.	.	4f#\	et	4a\	et	.	.	.	.
8D\J	.	.	.	.	.	.	.	.	.	.	.	.	.	.	.	.
=55	=55	=55	=55	=55	=55	=55	=55	=55	=55	=55	=55	=55	=55	=55	=55	=55
8D\L	6 4	.	(4.gg\	.	4.bb\	.	.	.	4g\	de	4b\	de	.	.	2.ryy	2.ryy
8D\	.	.	.	.	.	.	.	.	.	.	.	.	.	.	.	.
8D\	.	.	.	.	.	.	.	.	4g\	ster-	4b\	ster-	.	.	.	.
8D\	.	.	16ff#\LL	.	16aa\LL	.	.	.	.	.	.	.	.	.	.	.
.	.	.	16gg\JJ)	.	16bb\JJ	.	.	.	.	.	.	.	.	.	.	.
8D\	.	.	8bb\L	.	8ddd\L	.	.	.	8b\	-co-	8dd\	-co-	.	.	.	.
8D\J	.	.	8gg\J	.	8bb\J	.	.	.	8g\	-re	8b\	-re	.	.	.	.
*Xtremolo	*	*	*	*	*	*	*	*	*	*	*	*	*	*	*	*
=56	=56	=56	=56	=56	=56	=56	=56	=56	=56	=56	=56	=56	=56	=56	=56	=56
8D\L	3_	.	(4.ff#\	.	4.aa\	.	.	.	4.f#\	e-	4.a\	e-	.	.	2.ryy	2.ryy
8D\	.	.	.	.	.	.	.	.	.	.	.	.	.	.	.	.
8D\	.	.	.	.	.	.	.	.	.	.	.	.	.	.	.	.
8D\	.	.	8dd\)	.	8ff#\	.	.	.	8d\	-ri-	8f#\	-ri-	.	.	.	.
!	!	!	!	!	!	!	!	!	!	!	!LO:LB:g=original	!	!	!	!	!
8D\	.	.	4ff#|\	.	4aa\	.	.	.	4f#\	-gens	4a\	-gens	.	.	.	.
8D\J	X	.	.	.	.	.	.	.	.	.	.	.	.	.	.	.
!	!	!	!LO:LB:g=original	!	!	!	!	!	!	!	!	!	!	!	!	!
=57	=57	=57	=57	=57	=57	=57	=57	=57	=57	=57	=57	=57	=57	=57	=57	=57
!LO:TX:t=P:problem=mixed beam	!	!	!	!	!	!	!	!	!	!	!	!	!	!	!	!
8G\L	6	.	8gg\L	.	8bb\L	.	.	.	8g\L	pau-	8b\L	pau-	.	.	2.ryy	2.ryy
8G\	.	.	8ee\J	.	8gg\J	.	.	.	8e\J	.	8g\J	.	.	.	.	.
8A\	6 4	.	4dd\	.	4ff#\	.	.	.	4d\	.	4f#\	.	.	.	.	.
8A\	.	.	.	.	.	.	.	.	.	.	.	.	.	.	.	.
8AA/	5 3	.	4cc#X\	.	4ee\	.	.	.	4c#X\	-pe-	4e\	-pe-	.	.	.	.
8AA/J	.	.	.	.	.	.	.	.	.	.	.	.	.	.	.	.
=58	=58	=58	=58	=58	=58	=58	=58	=58	=58	=58	=58	=58	=58	=58	=58	=58
8D\L	.	.	4dd\	.	4ff#\	.	0.r	.	4d\	-rem	4f#\	-rem	0.r	.	2.ryy	2.ryy
16F#\L	.	.	.	.	.	.	.	.	.	.	.	.	.	.	.	.
16A\JJ	.	.	.	.	.	.	.	.	.	.	.	.	.	.	.	.
8d\L|	.	.	4dd\	.	4ff#\	.	.	.	4r	.	4r	.	.	.	.	.
8cn\|	.	.	.	.	.	.	.	.	.	.	.	.	.	.	.	.
8B\|	.	.	4r	.	4r	.	.	.	4r	.	4r	.	.	.	.	.
8A\J|	.	.	.	.	.	.	.	.	.	.	.	.	.	.	.	.
!	!	!	!	!	!LO:LB:g=original	!	!	!	!	!	!	!	!	!	!	!
=59	=59	=59	=59	=59	=59	=59	=59	=59	=59	=59	=59	=59	=59	=59	=59	=59
4G#X\	6_ 5_	.	4e/	.	8.dd\L	.	.	.	8.d\L	ut	1.r	.	.	.	2.ryy	2.ryy
.	.	.	.	.	32cc\LL	.	.	.	32c\LL	.	.	.	.	.	.	.
.	.	.	.	.	32dd\JJJ	.	.	.	32d\JJJ	.	.	.	.	.	.	.
4G#\	.	.	4e/	.	8ee\L	.	.	.	8e\L	col-	.	.	.	.	.	.
.	X X	.	.	.	8dd\	.	.	.	8d\J	.	.	.	.	.	.	.
!	!	!	!	!	!	!	!	!	!LO:LB:g=original	!	!	!	!	!	!	!
8r	.	.	4e/	.	8ccn\	.	.	.	8cn\	-lo-	.	.	.	.	.	.
8G#\	.	.	.	.	8b\J	.	.	.	8B\	-cet	.	.	.	.	.	.
=60	=60	=60	=60	=60	=60	=60	=60	=60	=60	=60	=60	=60	=60	=60	=60	=60
8A\L	n_	.	4e/	.	8cc\L	.	.	.	8c\L	e-	.	.	.	.	2.ryy	2.ryy
16A\L	x	.	.	.	8b\J	.	.	.	8B\J	-um	.	.	.	.	.	.
16B\JJ	.	.	.	.	.	.	.	.	.	.	.	.	.	.	.	.
8c\L	.	.	4e/	.	4cc\	.	.	.	4c\	.	.	.	.	.	.	.
8B\	.	.	.	.	.	.	.	.	.	.	.	.	.	.	.	.
8A\	.	.	4r	.	4r	.	.	.	4r	.	.	.	.	.	.	.
8Gn\J	.	.	.	.	.	.	.	.	.	.	.	.	.	.	.	.
=61	=61	=61	=61	=61	=61	=61	=61	=61	=61	=61	=61	=61	=61	=61	=61	=61
4F#\	6_ 5_	.	4d/	.	8.cc\L	.	.	.	2.r	.	8ccn\	e-	.	.	2.ryy	2.ryy
.	.	.	.	.	.	.	.	.	.	.	16b\LL	-um	.	.	.	.
.	.	.	.	.	32b\LL	.	.	.	.	.	16cc\JJ	.	.	.	.	.
.	.	.	.	.	32cc\JJJ	.	.	.	.	.	.	.	.	.	.	.
4F#\	.	.	4d/	.	8dd\L	.	.	.	.	.	8dd\L	cum	.	.	.	.
.	X X	.	.	.	8cc\	.	.	.	.	.	8cc\J	.	.	.	.	.
8r	.	.	4d/	.	8b\	.	.	.	.	.	8b\L	-prin-	.	.	.	.
8F#\	.	.	.	.	8a\J	.	.	.	.	.	8a\J	.	.	.	.	.
=62	=62	=62	=62	=62	=62	=62	=62	=62	=62	=62	=62	=62	=62	=62	=62	=62
8G\L	.	.	4d/	.	8b\L	.	0.r	.	4r	.	8b\	-ci-	0.r	.	2.ryy	2.ryy
8G\	.	.	.	.	8a\J	.	.	.	.	.	8a\	-pi-	.	.	.	.
8G\	.	.	4d/	.	4b\	.	.	.	4r	.	4b\	-bus	.	.	.	.
8G\	.	.	.	.	.	.	.	.	.	.	.	.	.	.	.	.
8G\	.	.	4b\	.	4dd\	.	.	.	4d\	prin-	4dd\	prin-	.	.	.	.
8G\J	.	.	.	.	.	.	.	.	.	.	.	.	.	.	.	.
=63	=63	=63	=63	=63	=63	=63	=63	=63	=63	=63	=63	=63	=63	=63	=63	=63
8G\L	6_ 4_	.	4.cc\	.	4.ee\	.	.	.	4.e\	-ci-	4.cc\	-ci-	.	.	2.ryy	2.ryy
8G\	.	.	.	.	.	.	.	.	.	.	.	.	.	.	.	.
8G\	.	.	.	.	.	.	.	.	.	.	.	.	.	.	.	.
8G\	.	.	16b\LL	.	16dd\LL	.	.	.	8e\	-pi-	8cc\	-pi-	.	.	.	.
.	.	.	16cc\JJ	.	16ee\JJ	.	.	.	.	.	.	.	.	.	.	.
8G\	5 3	.	4b\	.	8dd\L	.	.	.	4d\	-bus	4b\	-bus	.	.	.	.
8G\J	.	.	.	.	8gg\J	.	.	.	.	.	.	.	.	.	.	.
!LO:LB:g=original	!	!	!	!	!	!	!	!	!	!	!	!	!	!	!	!
=64	=64	=64	=64	=64	=64	=64	=64	=64	=64	=64	=64	=64	=64	=64	=64	=64
8F#\L	6_ 5_	.	4.a/	.	4.cc\	.	.	.	4.c\	po-	4.a\	po-	.	.	2.ryy	2.ryy
8F#\	.	.	.	.	.	.	.	.	.	.	.	.	.	.	.	.
8F#\	.	.	.	.	.	.	.	.	.	.	.	.	.	.	.	.
8F#\	.	.	16b/LL	.	16dd\LL	.	.	.	8c\	-pu-	8a\	-pu-	.	.	.	.
.	X X	.	16a/JJ	.	16cc\JJ	.	.	.	.	.	.	.	.	.	.	.
8G\	.	.	8g/L	.	8b\L	.	.	.	4B\	-li	4g\	-li	.	.	.	.
8G\J	.	.	8b/J	.	16cc\L	.	.	.	.	.	.	.	.	.	.	.
.	.	.	.	.	16dd\JJ	.	.	.	.	.	.	.	.	.	.	.
!	!	!	!	!	!	!	!	!	!	!	!LO:LB:g=original	!	!	!	!	!
=65	=65	=65	=65	=65	=65	=65	=65	=65	=65	=65	=65	=65	=65	=65	=65	=65
8C/L	6	.	4a/	.	8ee\L	.	.	.	4c\	Su-	4a\	Su-	.	.	2.ryy	2.ryy
8C/	.	.	.	.	16dd\L	.	.	.	.	.	.	.	.	.	.	.
.	.	.	.	.	16cc\JJ	.	.	.	.	.	.	.	.	.	.	.
8D/	6 4	.	4g/	.	4b\	.	.	.	4B\	.	4g\	.	.	.	.	.
8D/	.	.	.	.	.	.	.	.	.	.	.	.	.	.	.	.
8DD/	5 3	.	4f#/	.	4a\	.	.	.	4A\	.	4f#\	.	.	.	.	.
8DD/J	.	.	.	.	.	.	.	.	.	.	.	.	.	.	.	.
=66	=66	=66	=66	=66	=66	=66	=66	=66	=66	=66	=66	=66	=66	=66	=66	=66
4GG/	.	.	16g/LL	.	16b\LL	.	2.r	.	4B\	-i	4g\	-i	2.r	.	2.ryy	2.ryy
.	.	.	16a/	.	16cc\	.	.	.	.	.	.	.	.	.	.	.
!	!	!	!	!LO:HP:b:t=cres	!	!	!	!	!	!	!	!	!	!	!	!
.	.	.	16g/	<	16b\	.	.	.	.	.	.	.	.	.	.	.
.	.	.	16f#/JJ	.	16a\JJ	.	.	.	.	.	.	.	.	.	.	.
!	!	!	!	!	!LO:LB:g=original	!	!	!	!	!	!	!	!	!	!	!
4r	.	.	8g/L	.	8b|\L	.	.	.	4r	.	4r	.	.	.	.	.
.	.	.	8b/	.	8dd|\	.	.	.	.	.	.	.	.	.	.	.
4r	.	.	8cc/	.	8ee|\	.	.	.	4r	.	4r	.	.	.	.	.
.	.	.	8a/J	.	8ff#|\J	.	.	.	.	.	.	.	.	.	.	.
!	!	!	!LO:LB:g=original	!	!	!	!	!	!	!	!	!	!	!	!	!
=67	=67	=67	=67	=67	=67	=67	=67	=67	=67	=67	=67	=67	=67	=67	=67	=67
!LO:TX:a:rj:t=tutti	!	!	!	!LO:DY:b:rj:t=for	!	!LO:DY:t=for	!	!	!	!	!	!	!	!	!	!
8G\L	.	.	16bLL 16d/	f	4.gg\	f	4G\	Qui	4d\	quis	4g\	quis	4b\	quis	2.ryy	2.ryy
.	.	.	16b 16d/	.	.	.	.	.	.	.	.	.	.	.	.	.
8G\	.	.	16b 16d/	.	.	.	.	.	.	.	.	.	.	.	.	.
.	.	.	16bJJ 16d/	.	.	.	.	.	.	.	.	.	.	.	.	.
*	*	*	*tremolo	*	*	*	*	*	*	*	*	*	*	*	*	*
8G\	.	.	16bLL 16d/	.	.	.	4G\	ha-	4d\	ha-	4g\	ha-	4b\	ha-	.	.
.	.	.	16b 16d/	.	.	.	.	.	.	.	.	.	.	.	.	.
8G\	.	.	16b 16d/	.	16bb\LL	.	.	.	.	.	.	.	.	.	.	.
.	.	.	16bJJ 16d/	.	16aa\JJ	.	.	.	.	.	.	.	.	.	.	.
8G\	.	.	16bLL 16d/	.	8gg\L	.	4G\	-bi-	4d\	-bi-	4g\	-bi-	4b\	-bi-	.	.
.	.	.	16b 16d/	.	.	.	.	.	.	.	.	.	.	.	.	.
8G\J	.	.	16b 16d/	.	8gg\J	.	.	.	.	.	.	.	.	.	.	.
.	.	.	16bJJ 16d/	.	.	.	.	.	.	.	.	.	.	.	.	.
!	!	!	!	!	!	!	!	!	!	!	!	!	!LO:LB:g=original	!	!	!
=68	=68	=68	=68	=68	=68	=68	=68	=68	=68	=68	=68	=68	=68	=68	=68	=68
8A\L	6_ 3_	.	16ccLL 16d/	.	8gg\L	.	8A\	-ta-	8d\	-ta-	8f#\	-ta-	8cc\	-ta-	2.ryy	2.ryy
.	.	.	16cc 16d/	.	.	.	.	.	.	.	.	.	.	.	.	.
8A\	.	.	16cc 16d/	.	8ff#\J	.	8A\	-re	8d\	-re	8f#\	-re	8cc\	-re	.	.
.	.	.	16ccJJ 16d/	.	.	.	.	.	.	.	.	.	.	.	.	.
8A\	.	.	16ccLL 16d/	.	8r	.	4A\	fa-	4d\	fa-	4f#\	fa-	4cc\	fa-	.	.
.	.	.	16cc 16d/	.	.	.	.	.	.	.	.	.	.	.	.	.
8A\	.	.	16cc 16d/	.	8ff#\	.	.	.	.	.	.	.	.	.	.	.
.	.	.	16ccJJ 16d/	.	.	.	.	.	.	.	.	.	.	.	.	.
8G\	x 3	.	16bLL 16d/	.	8gg\L	.	4G\	-cit	4d\	-cit	4g\	-cit	4b\	-cit	.	.
.	.	.	16b 16d/	.	.	.	.	.	.	.	.	.	.	.	.	.
8G\J	.	.	16b 16d/	.	16ff#\L	.	.	.	.	.	.	.	.	.	.	.
.	.	.	16bJJ 16d/	.	16gg\JJ	.	.	.	.	.	.	.	.	.	.	.
!	!	!	!	!	!	!	!	!	!LO:LB:g=original	!	!	!	!	!	!	!
=69	=69	=69	=69	=69	=69	=69	=69	=69	=69	=69	=69	=69	=69	=69	=69	=69
*tremolo	*	*	*	*	*	*	*	*	*	*	*	*	*	*	*	*
8F#\L	6 5	.	16ccLL 16d/	.	(4.aa\	.	8F#\	Ste-	8d\	Ste-	8a\	Ste-	8cc\	Ste-	2.ryy	2.ryy
.	.	.	16cc 16d/	.	.	.	.	.	.	.	.	.	.	.	.	.
8F#	.	.	16cc 16d/	.	.	.	8F#\	-ri-	8d\	-ri-	8a\	-ri-	8cc\	-ri-	.	.
.	.	.	16ccJJ 16d/	.	.	.	.	.	.	.	.	.	.	.	.	.
8F#	.	.	16ccLL 16d/	.	.	.	4F#\	-lem	4d\	-lem	4a\	-lem	4cc\	-lem	.	.
.	.	.	16cc 16d/	.	.	.	.	.	.	.	.	.	.	.	.	.
8F#	.	.	16cc 16d/	.	16ccc\LL	.	.	.	.	.	.	.	.	.	.	.
.	.	.	16ccJJ 16d/	.	16bb\JJ)	.	.	.	.	.	.	.	.	.	.	.
8F#	.	.	16ccLL 16d/	.	8aa|\L	.	4F#\	in	4d\	in	4a\	in	4cc\	in	.	.
.	.	.	16cc 16d/	.	.	.	.	.	.	.	.	.	.	.	.	.
8F#J	.	.	16cc 16d/	.	8aa|\J	.	.	.	.	.	.	.	.	.	.	.
.	.	.	16ccJJ 16d/	.	.	.	.	.	.	.	.	.	.	.	.	.
*Xtremolo	*	*	*	*	*	*	*	*	*	*	*	*	*	*	*	*
=70	=70	=70	=70	=70	=70	=70	=70	=70	=70	=70	=70	=70	=70	=70	=70	=70
8G\L	.	.	16bLL 16d/	.	(8aa\L	.	4G\	Do-	4d\	Do-	4g\	Do-	4b\	Do-	2.ryy	2.ryy
.	.	.	16b 16d/	.	.	.	.	.	.	.	.	.	.	.	.	.
8G\	.	.	16b 16d/	.	8gg\J)	.	.	.	.	.	.	.	.	.	.	.
.	.	.	16bJJ 16d/	.	.	.	.	.	.	.	.	.	.	.	.	.
8G\	.	.	16bLL 16d/	.	8r	.	4G\	-mo	4d\	-mo	4g\	-mo	4b\	-mo	.	.
.	.	.	16b 16d/	.	.	.	.	.	.	.	.	.	.	.	.	.
8G\	.	.	16b 16d/	.	8gg\	.	.	.	.	.	.	.	.	.	.	.
.	.	.	16bJJ 16d/	.	.	.	.	.	.	.	.	.	.	.	.	.
8B\	6_	.	16bLL 16d/	.	(16gg\LL	.	4B\	Mat-	4d\	Mat-	(4b\	Mat-	(4dd\	Ma-	.	.
.	.	.	16b 16d/	.	16aa\	.	.	.	.	.	.	.	.	.	.	.
8B\J	.	.	16b 16d/	.	16gg\	.	.	.	.	.	.	.	.	.	.	.
.	X	.	16bJJ 16d/	.	16ffn\JJ)	.	.	.	.	.	.	.	.	.	.	.
*	*	*	*Xtremolo	*	*	*	*	*	*	*	*	*	*	*	*	*
=71	=71	=71	=71	=71	=71	=71	=71	=71	=71	=71	=71	=71	=71	=71	=71	=71
8c\L	.	.	16g/LL	.	8ffn\L	.	2c\	.	2e\	.	2cc\)	.	2ee\)	.	2.ryy	2.ryy
.	.	.	16g/	.	.	.	.	.	.	.	.	.	.	.	.	.
8c\	.	.	16g/	.	8ee\J	.	.	.	.	.	.	.	.	.	.	.
.	.	.	16g/JJ	.	.	.	.	.	.	.	.	.	.	.	.	.
*	*	*	*tremolo	*	*	*	*	*	*	*	*	*	*	*	*	*
8c\	.	.	16g/LL	.	8r	.	.	.	.	.	.	.	.	.	.	.
.	.	.	16g/	.	.	.	.	.	.	.	.	.	.	.	.	.
8c\	.	.	16g/	.	8ee\	.	.	.	.	.	.	.	.	.	.	.
.	.	.	16g/JJ	.	.	.	.	.	.	.	.	.	.	.	.	.
8A\	6_ 3_	.	16cc\LL	.	8.ff#Xt\L	.	4A\	-rem	4d\	-rem	4cc\	-rem	4ff#\	-trem	.	.
.	.	.	16cc\	.	.	.	.	.	.	.	.	.	.	.	.	.
8A\J	.	.	16cc\	.	.	.	.	.	.	.	.	.	.	.	.	.
.	.	.	16cc\JJ	.	(32ee\LL	.	.	.	.	.	.	.	.	.	.	.
.	X X	.	.	.	32ff#\JJJ)	.	.	.	.	.	.	.	.	.	.	.
=72	=72	=72	=72	=72	=72	=72	=72	=72	=72	=72	=72	=72	=72	=72	=72	=72
8B\L	6_	.	16dd\LL	.	(8ff#\L	.	2B\	fi-	2d\	fi-	2b\	fi-	2gg\	fi-	2.ryy	2.ryy
.	.	.	16dd\	.	.	.	.	.	.	.	.	.	.	.	.	.
8B\	.	.	16dd\	.	8gg\J)	.	.	.	.	.	.	.	.	.	.	.
.	.	.	16dd\JJ	.	.	.	.	.	.	.	.	.	.	.	.	.
8B\	.	.	16dd\LL	.	8r	.	.	.	.	.	.	.	.	.	.	.
.	.	.	16dd\	.	.	.	.	.	.	.	.	.	.	.	.	.
8B\	.	.	16dd\	.	8gg'\	.	.	.	.	.	.	.	.	.	.	.
.	X	.	16dd\JJ	.	.	.	.	.	.	.	.	.	.	.	.	.
8G\	.	.	16dd\LL	.	16ff#\LL	.	4G\	-li-	4d\	-li-	4b\	-li-	4dd\	-li-	.	.
.	.	.	16dd\	.	16gg\	.	.	.	.	.	.	.	.	.	.	.
8G\J	.	.	16dd\	.	16aa\	.	.	.	.	.	.	.	.	.	.	.
.	.	.	16dd\JJ	.	16bb\JJ	.	.	.	.	.	.	.	.	.	.	.
!	!	!	!	!	!LO:LB:g=original	!	!	!	!	!	!LO:LB:g=original	!	!	!	!	!
=73	=73	=73	=73	=73	=73	=73	=73	=73	=73	=73	=73	=73	=73	=73	=73	=73
8F#\L	6_ 5_	.	16cc/LL	.	(8.ccc\L	.	(4F#\	-o-	2d\	-o-	2a\	-o-	(4dd\	-o-	2.ryy	2.ryy
.	.	.	16cc/	.	.	.	.	.	.	.	.	.	.	.	.	.
8F#\	.	.	16cc/	.	.	.	.	.	.	.	.	.	.	.	.	.
.	.	.	16cc/JJ	.	16ddd\Jk)	.	.	.	.	.	.	.	.	.	.	.
8D\	.	.	16cc/LL	.	8ccc|\L	.	4D\)	.	.	.	.	.	4cc\)	.	.	.
.	.	.	16cc/	.	.	.	.	.	.	.	.	.	.	.	.	.
8D\	.	.	16cc/	.	8ccc|\J	.	.	.	.	.	.	.	.	.	.	.
.	X X	.	16cc/JJ	.	.	.	.	.	.	.	.	.	.	.	.	.
8G\	.	.	16dd/LL	.	16ccc\LL	.	4G\	-rum	4d\	-rum	4a\	-rum	4b\	-rum	.	.
.	.	.	16dd/	.	16bb\	.	.	.	.	.	.	.	.	.	.	.
8G\J	.	.	16dd/	.	16aa\	.	.	.	.	.	.	.	.	.	.	.
.	.	.	16dd/JJ	.	16gg\JJ	.	.	.	.	.	.	.	.	.	.	.
*	*	*	*Xtremolo	*	*	*	*	*	*	*	*	*	*	*	*	*
!LO:LB:g=original	!	!	!	!	!	!	!LO:LB:g=original	!	!	!	!	!	!	!	!	!
=74	=74	=74	=74	=74	=74	=74	=74	=74	=74	=74	=74	=74	=74	=74	=74	=74
!LO:TX:t=P:problem=mixed beam	!	!	!	!	!	!	!	!	!	!	!LO:SIC:v:l:s=lae-	!	!LO:SIC:v:l:s=lae-	!	!	!
8c\L	6	.	16cc\LL	.	16aa\LL	.	4c\	le-	4e\	lae-	4a\	le-	4cc\	le-	2.ryy	2.ryy
.	.	.	16dd\	.	16bb\	.	.	.	.	.	.	.	.	.	.	.
8c\	.	.	16ee\	.	16ccc\	.	.	.	.	.	.	.	.	.	.	.
.	.	.	16cc\JJ	.	16aa\JJ	.	.	.	.	.	.	.	.	.	.	.
8d\	4	.	4b\	.	4gg\	.	4d\	-tan-	2d\	-tan-	4g\	-tan-	4b\	-tan-	.	.
8d\	.	.	.	.	.	.	.	.	.	.	.	.	.	.	.	.
8D\	3	.	4a\	.	4ff#\	.	4D\	.	.	.	4f#\	.	4a\	.	.	.
8D\J	.	.	.	.	.	.	.	.	.	.	.	.	.	.	.	.
=75	=75	=75	=75	=75	=75	=75	=75	=75	=75	=75	=75	=75	=75	=75	=75	=75
!LO:TX:a:i:t=Solo	!	!	!	!	!	!	!	!	!	!	!	!	!	!	!	!
4G\	.	.	4b\	.	8gg\L	.	4G\	-tem	4d\	-tem	4g\	-tem	4b\	-tem	2.ryy	2.ryy
.	.	.	.	.	16bb\L	.	.	.	.	.	.	.	.	.	.	.
.	.	.	.	.	16aa\JJ	.	.	.	.	.	.	.	.	.	.	.
4r	.	.	4r	.	8gg\L	.	4r	.	4r	.	4r	.	4r	.	.	.
.	.	.	.	.	8gg\J	.	.	.	.	.	.	.	.	.	.	.
4B\	6	.	4g/	.	16gg\LL	.	4r	.	4r	.	4r	.	4r	.	.	.
.	.	.	.	.	16ff#\	.	.	.	.	.	.	.	.	.	.	.
.	.	.	.	.	16ee\	.	.	.	.	.	.	.	.	.	.	.
.	.	.	.	.	16dd\JJ	.	.	.	.	.	.	.	.	.	.	.
=76	=76	=76	=76	=76	=76	=76	=76	=76	=76	=76	=76	=76	=76	=76	=76	=76
!	!	!	!	!	!	!	!	!	!	!	!	!	!LO:TX:a:i:t=Solo	!	!	!
4c\	6	.	4a/	.	8ee\L	.	0.r	.	0.r	.	0.r	.	2.r	.	2.ryy	2.ryy
.	.	.	.	.	16dd\L	.	.	.	.	.	.	.	.	.	.	.
.	.	.	.	.	16cc\JJ	.	.	.	.	.	.	.	.	.	.	.
!	!	!	!LO:LB:g=original	!	!	!	!	!	!	!	!	!	!	!	!	!
4d\	4	.	8g/L	.	8b\L	.	.	.	.	.	.	.	.	.	.	.
.	.	.	8b/	.	8gg\	.	.	.	.	.	.	.	.	.	.	.
4D\	3	.	8f#/	.	8a\	.	.	.	.	.	.	.	.	.	.	.
.	.	.	8a/J	.	8ff#\J	.	.	.	.	.	.	.	.	.	.	.
!	!	!	!	!	!	!	!	!	!	!	!	!	!LO:LB:g=original	!	!	!
=77	=77	=77	=77	=77	=77	=77	=77	=77	=77	=77	=77	=77	=77	=77	=77	=77
!	!	!LO:DY:a:t=p.	!	!LO:DY:a:t=p.	!	!LO:DY:a:rj:t=p.	!	!	!	!	!	!	!	!	!	!
8G\L	.	p	8b\L	p	2gg\	p	.	.	.	.	.	.	2gg\	Glo-	2.ryy	2.ryy
8G\	.	.	8b\	.	.	.	.	.	.	.	.	.	.	.	.	.
8G\	.	.	8b\	.	.	.	.	.	.	.	.	.	.	.	.	.
8G\	.	.	8b\	.	.	.	.	.	.	.	.	.	.	.	.	.
8G\	.	.	8b\	.	16gg\LL	.	.	.	.	.	.	.	16gg\LL	-ri-	.	.
.	.	.	.	.	16ff#\	.	.	.	.	.	.	.	16ff#\JJ	.	.	.
8G\J	.	.	8b\J	.	16ee\	.	.	.	.	.	.	.	16ee\LL	-a	.	.
.	.	.	.	.	16dd\JJ	.	.	.	.	.	.	.	16dd\JJ	.	.	.
=78	=78	=78	=78	=78	=78	=78	=78	=78	=78	=78	=78	=78	=78	=78	=78	=78
*	*	*	*tremolo	*	*	*	*	*	*	*	*	*	*	*	*	*
8G\L	6_ 4_	.	8cc\L	.	8dd\L	.	.	.	.	.	.	.	8dd\L	Pa-	2.ryy	2.ryy
8G\	.	.	8cc\	.	8ee\J	.	.	.	.	.	.	.	8ee\J	.	.	.
8G\	.	.	8cc\	.	8r	.	.	.	.	.	.	.	4ee\	-tri	.	.
8G\	.	.	8cc\	.	8ee\	.	.	.	.	.	.	.	.	.	.	.
8G\	.	.	8cc\	.	8.ee\L	.	.	.	.	.	.	.	4r	.	.	.
8G\J	.	.	8cc\J	.	.	.	.	.	.	.	.	.	.	.	.	.
.	X X	.	.	.	.	.	.	.	.	.	.	.	.	.	.	.
.	.	.	.	.	32dd\LL	.	.	.	.	.	.	.	.	.	.	.
.	.	.	.	.	32ee\JJJ	.	.	.	.	.	.	.	.	.	.	.
=79	=79	=79	=79	=79	=79	=79	=79	=79	=79	=79	=79	=79	=79	=79	=79	=79
*tremolo	*	*	*	*	*	*	*	*	*	*	*	*	*	*	*	*
8G\L	7 2	.	8a/L	.	2ff#\	.	.	.	.	.	.	.	2ff#\	Glo-	2.ryy	2.ryy
8G\	.	.	8a/	.	.	.	.	.	.	.	.	.	.	.	.	.
8G\	.	.	8a/	.	.	.	.	.	.	.	.	.	.	.	.	.
8G\	.	.	8a/	.	.	.	.	.	.	.	.	.	.	.	.	.
8G\	.	.	8a/	.	16gg\LL	.	.	.	.	.	.	.	16gg\LL	-ri-	.	.
.	.	.	.	.	16ff#\	.	.	.	.	.	.	.	16ff#\JJ	.	.	.
8G\J	.	.	8a/J	.	16ee\	.	.	.	.	.	.	.	16ee\LL	-a	.	.
.	.	.	.	.	16ff#\JJ	.	.	.	.	.	.	.	16ff#\JJ	.	.	.
!	!	!	!	!	!LO:LB:g=original	!	!	!	!	!	!	!	!	!	!	!
=80	=80	=80	=80	=80	=80	=80	=80	=80	=80	=80	=80	=80	=80	=80	=80	=80
8G\L	3	.	8b\L	.	8ff#\L	.	0.r	.	0.r	.	0.r	.	8ff#\	fi-	2.ryy	2.ryy
8G\	.	.	8b\	.	8gg\J	.	.	.	.	.	.	.	8gg\	-li-	.	.
8G\	.	.	8b\	.	8r	.	.	.	.	.	.	.	4gg\	-o	.	.
8G\	.	.	8b\	.	8gg\	.	.	.	.	.	.	.	.	.	.	.
8G\	.	.	8b\	.	8.gg\L	.	.	.	.	.	.	.	4r	.	.	.
8G\J	.	.	8b\J	.	.	.	.	.	.	.	.	.	.	.	.	.
.	.	.	.	.	32ff#\LL	.	.	.	.	.	.	.	.	.	.	.
.	.	.	.	.	32gg\JJJ	.	.	.	.	.	.	.	.	.	.	.
=81	=81	=81	=81	=81	=81	=81	=81	=81	=81	=81	=81	=81	=81	=81	=81	=81
8G\L	.	.	8b\L	.	4.b\	.	.	.	.	.	.	.	2dd\	et	2.ryy	2.ryy
8G\	.	.	8b\	.	.	.	.	.	.	.	.	.	.	.	.	.
8G\	.	.	8b\	.	.	.	.	.	.	.	.	.	.	.	.	.
8G\	.	.	8b\	.	16cc\LL	.	.	.	.	.	.	.	.	.	.	.
.	.	.	.	.	16dd\JJ	.	.	.	.	.	.	.	.	.	.	.
8G\	.	.	8b\	.	8ee\L	.	.	.	.	.	.	.	8ee\L	Spi-	.	.
8G\J	.	.	8b\J	.	8dd\J	.	.	.	.	.	.	.	8dd\J	.	.	.
*Xtremolo	*	*	*Xtremolo	*	*	*	*	*	*	*	*	*	*	*	*	*
=82	=82	=82	=82	=82	=82	=82	=82	=82	=82	=82	=82	=82	=82	=82	=82	=82
8F#\L	6_ 5_	.	8a/L	.	4.cc\	.	.	.	.	.	.	.	4.cc\	-ri-	2.ryy	2.ryy
8F#\	.	.	8a/	.	.	.	.	.	.	.	.	.	.	.	.	.
8F#\	.	.	8a/	.	.	.	.	.	.	.	.	.	.	.	.	.
8F#\	x x	.	8a/	.	16dd\LL	.	.	.	.	.	.	.	8cc\	-tu-	.	.
.	.	.	.	.	16cc\JJ	.	.	.	.	.	.	.	.	.	.	.
8G\	.	.	8g/	.	8b\L	.	.	.	.	.	.	.	4b\	-i	.	.
8G\J	.	.	8b/J	.	8gg\J	.	.	.	.	.	.	.	.	.	.	.
=83	=83	=83	=83	=83	=83	=83	=83	=83	=83	=83	=83	=83	=83	=83	=83	=83
8c\L	6	.	8cc/L	.	8ee\L	.	.	.	.	.	.	.	8ee\L	Sanc-	2.ryy	2.ryy
8c\	.	.	16b/L	.	16dd\L	.	.	.	.	.	.	.	16dd\L	.	.	.
.	.	.	16a/JJ	.	16cc\JJ	.	.	.	.	.	.	.	16cc\JJ	.	.	.
8d\	4	.	4g/	.	4b\	.	.	.	.	.	.	.	4b\	.	.	.
8d\	.	.	.	.	.	.	.	.	.	.	.	.	.	.	.	.
8D\	3	.	4f#/	.	4a\	.	.	.	.	.	.	.	4a\	.	.	.
8D\J	.	.	.	.	.	.	.	.	.	.	.	.	.	.	.	.
!	!	!	!	!	!	!	!	!	!	!	!	!	!LO:LB:g=original	!	!	!
=84	=84	=84	=84	=84	=84	=84	=84	=84	=84	=84	=84	=84	=84	=84	=84	=84
4G\	.	.	16g/LL	.	16b\LL	.	2.r	.	2.r	.	2.r	.	4b\	-to	2.ryy	2.ryy
.	.	.	16a/	.	16cc\	.	.	.	.	.	.	.	.	.	.	.
.	.	.	16g/	.	16b\	.	.	.	.	.	.	.	.	.	.	.
.	.	.	16f#/JJ	.	16a\JJ	.	.	.	.	.	.	.	.	.	.	.
4r	.	.	8g/L	.	8b\L	.	.	.	.	.	.	.	4r	.	.	.
!	!	!	!	!	!	!LO:HP:b:t=cres	!	!	!	!	!	!	!	!	!	!
.	.	.	16a/L	.	16cc\L	<	.	.	.	.	.	.	.	.	.	.
.	.	.	16b/JJ	.	16dd\JJ	.	.	.	.	.	.	.	.	.	.	.
4r	.	.	16cc/LL	.	16ee\LL	.	.	.	.	.	.	.	4r	.	.	.
.	.	.	16b/	.	16dd\	.	.	.	.	.	.	.	.	.	.	.
.	.	.	16cc/	.	16ee\	.	.	.	.	.	.	.	.	.	.	.
.	.	.	16a/JJ	.	16ff#\JJ	.	.	.	.	.	.	.	.	.	.	.
!LO:LB:g=original	!	!	!	!	!	!	!	!	!	!	!	!	!	!	!	!
=85	=85	=85	=85	=85	=85	=85	=85	=85	=85	=85	=85	=85	=85	=85	=85	=85
!LO:TX:a:i:t=tutti	!	!	!	!LO:DY:a:t=for	!	!LO:DY:a:t=for	!	!	!	!	!	!	!	!	!	!
8G\L	.	.	16bLL 16d/	f	4.gg 4.b 4.d\	f	8G\	Si-	8d\	Si-	8g\	Si-	8b\	Si-	2.ryy	2.ryy
.	.	.	16b 16d/	.	.	.	.	.	.	.	.	.	.	.	.	.
8G\	.	.	16b 16d/	.	.	.	8G\	-cut	8d\	-cut	8g\	-cut	8b\	-cut	.	.
.	.	.	16bJJ 16d/	.	.	.	.	.	.	.	.	.	.	.	.	.
*	*	*	*tremolo	*	*	*	*	*	*	*	*	*	*	*	*	*
8G\	.	.	16bLL 16d/	.	.	.	4G\	e-	4d\	e-	4g\	e-	4b\	e-	.	.
.	.	.	16b 16d/	.	.	.	.	.	.	.	.	.	.	.	.	.
8G\	.	.	16b 16d/	.	16b\LL	.	.	.	.	.	.	.	.	.	.	.
.	.	.	16bJJ 16d/	.	16cc\JJ	.	.	.	.	.	.	.	.	.	.	.
8G\	.	.	16bLL 16d/	.	8dd\L	.	4G\	-rat	4d\	-rat	4g\	-rat	4b\	-rat	.	.
.	.	.	16b 16d/	.	.	.	.	.	.	.	.	.	.	.	.	.
8G\J	.	.	16b 16d/	.	8dd\J	.	.	.	.	.	.	.	.	.	.	.
.	.	.	16bJJ 16d/	.	.	.	.	.	.	.	.	.	.	.	.	.
!	!	!	!LO:LB:g=original	!	!	!	!	!	!LO:PB:g=original	!	!	!	!	!	!	!
=86	=86	=86	=86	=86	=86	=86	=86	=86	=86	=86	=86	=86	=86	=86	=86	=86
*	*	*	*^	*	*	*	*	*	*	*	*	*	*	*	*	*
*tremolo	*	*	*	*	*	*	*	*	*	*	*	*	*	*	*	*	*
8D\L	.	.	16a/LL	16f#\LL	.	(8dd\L	.	8D\	in	8d\	in	8f#\	in	8a\	in	2.ryy	2.ryy
.	.	.	16a/	16f#\	.	.	.	.	.	.	.	.	.	.	.	.	.
8D\	.	.	16a/	16f#\	.	8cc\J)	.	8D\	prin-	8d\	prin-	8f#\	prin-	8a\	prin-	.	.
.	.	.	16a/JJ	16f#\JJ	.	.	.	.	.	.	.	.	.	.	.	.	.
8D\	.	.	16a/LL	16f#\LL	.	8cc\L	.	4D\	-ci-	4d\	-ci-	4f#\	-ci-	4a\	-ci-	.	.
.	.	.	16a/	16f#\	.	.	.	.	.	.	.	.	.	.	.	.	.
8D\	.	.	16a/	16f#\	.	16aa\L	.	.	.	.	.	.	.	.	.	.	.
.	.	.	16a/JJ	16f#\JJ	.	16gg\JJ	.	.	.	.	.	.	.	.	.	.	.
8D\	.	.	16a/LL	16f#\LL	.	16ff#\LL	.	4D\	-pi-	4d\	-pi-	4f#\	-pi-	4a\	-pi-	.	.
.	.	.	16a/	16f#\	.	16ee\	.	.	.	.	.	.	.	.	.	.	.
8D\J	.	.	16a/	16f#\	.	16dd\	.	.	.	.	.	.	.	.	.	.	.
.	.	.	16a/JJ	16f#\JJ	.	16cc\JJ	.	.	.	.	.	.	.	.	.	.	.
*	*	*	*v	*v	*	*	*	*	*	*	*	*	*	*	*	*	*
!	!	!	!	!	!LO:LB:g=original	!	!	!	!	!	!	!	!	!	!	!
=87	=87	=87	=87	=87	=87	=87	=87	=87	=87	=87	=87	=87	=87	=87	=87	=87
8F#\L	6 5	.	16aLL 16d/	.	4.aa 4.cc 4.d\	.	8F#\	-o	8d\	-o	8a\	-o	8cc\	-o	2.ryy	2.ryy
.	.	.	16a 16d/	.	.	.	.	.	.	.	.	.	.	.	.	.
8F#\	.	.	16a 16d/	.	.	.	8F#\	et	8d\	et	8a\	et	8cc\	et	.	.
.	.	.	16aJJ 16d/	.	.	.	.	.	.	.	.	.	.	.	.	.
8F#\	.	.	16aLL 16d/	.	.	.	4F#\	nunc	4d\	nunc	4a\	nunc	4cc\	nunc	.	.
.	.	.	16a 16d/	.	.	.	.	.	.	.	.	.	.	.	.	.
8F#\	.	.	16a 16d/	.	16a\LL	.	.	.	.	.	.	.	.	.	.	.
.	.	.	16aJJ 16d/	.	16b\JJ	.	.	.	.	.	.	.	.	.	.	.
8F#\	.	.	16aLL 16d/	.	8cc\L	.	4F#\	et	4d\	et	4a\	et	4cc\	et	.	.
.	.	.	16a 16d/	.	.	.	.	.	.	.	.	.	.	.	.	.
8F#\J	.	.	16a 16d/	.	8cc\J	.	.	.	.	.	.	.	.	.	.	.
.	.	.	16aJJ 16d/	.	.	.	.	.	.	.	.	.	.	.	.	.
=88	=88	=88	=88	=88	=88	=88	=88	=88	=88	=88	=88	=88	=88	=88	=88	=88
8G\L	.	.	16d/LL	.	(8cc\L	.	4G\	Sem-	4d\	Sem-	4g\	Sem-	4b\	Sem-	2.ryy	2.ryy
.	.	.	16d/	.	.	.	.	.	.	.	.	.	.	.	.	.
8G\	.	.	16d/	.	8b\J)	.	.	.	.	.	.	.	.	.	.	.
.	.	.	16d/JJ	.	.	.	.	.	.	.	.	.	.	.	.	.
8G\	.	.	16d/LL	.	8b\L	.	4G\	-per	4d\	-per	4g\	-per	4b\	-per	.	.
.	.	.	16d/	.	.	.	.	.	.	.	.	.	.	.	.	.
8G\	.	.	16d/	.	16gg\L	.	.	.	.	.	.	.	.	.	.	.
.	.	.	16d/JJ	.	16ff#\JJ	.	.	.	.	.	.	.	.	.	.	.
!	!	!	!	!	!	!	!	!	!	!	!LO:LB:g=original	!	!	!	!	!
8G\	.	.	16d/LL	.	16ee\LL	.	8G\	et	8d\	et	8b\	et	8dd\	et	.	.
.	.	.	16d/	.	16dd\	.	.	.	.	.	.	.	.	.	.	.
8G\J	.	.	16d/	.	16cc\	.	8G\	in	8d\	in	8b\	in	8dd\	in	.	.
.	.	.	16d/JJ	.	16b\JJ	.	.	.	.	.	.	.	.	.	.	.
*Xtremolo	*	*	*	*	*	*	*	*	*	*	*	*	*	*	*	*
=89	=89	=89	=89	=89	=89	=89	=89	=89	=89	=89	=89	=89	=89	=89	=89	=89
8C/L	6_	.	16e/LL	.	8b/L	.	4.c\	Sae-	4.e\	Sae-	4.a\	Sae-	4.ee\	Sae-	2.ryy	2.ryy
.	.	.	16e/	.	.	.	.	.	.	.	.	.	.	.	.	.
8C/	.	.	16e/	.	8a/J	.	.	.	.	.	.	.	.	.	.	.
.	.	.	16e/JJ	.	.	.	.	.	.	.	.	.	.	.	.	.
8C/	.	.	16e/LL	.	8r	.	.	.	.	.	.	.	.	.	.	.
.	.	.	16e/	.	.	.	.	.	.	.	.	.	.	.	.	.
8C/	.	.	16e/	.	8a/	.	8c\	-cu-	8e\	-cu-	8a\	-cu-	8ee\	-cu-	.	.
.	.	.	16e/JJ	.	.	.	.	.	.	.	.	.	.	.	.	.
8D/	3_	.	16f#/LL	.	8.a/L	.	4d\	-la	4d\	-la	4a\	-la	4ff#\	-la	.	.
.	.	.	16f#/	.	.	.	.	.	.	.	.	.	.	.	.	.
8D/J	.	.	16f#/	.	.	.	.	.	.	.	.	.	.	.	.	.
.	.	.	16f#/JJ	.	32g/LL	.	.	.	.	.	.	.	.	.	.	.
.	X	.	.	.	32a/JJJ	.	.	.	.	.	.	.	.	.	.	.
*	*	*	*Xtremolo	*	*	*	*	*	*	*	*	*	*	*	*	*
=90	=90	=90	=90	=90	=90	=90	=90	=90	=90	=90	=90	=90	=90	=90	=90	=90
8E/L	.	.	16B/LL	.	8b/L	.	2e\	Sae-	2e\	Sae-	2b\	Sae-	2gg\	Sae-	2.ryy	2.ryy
.	.	.	16B/	.	.	.	.	.	.	.	.	.	.	.	.	.
8E/	.	.	16B/	.	8f#/J	.	.	.	.	.	.	.	.	.	.	.
.	.	.	16B/JJ	.	.	.	.	.	.	.	.	.	.	.	.	.
*	*	*	*tremolo	*	*	*	*	*	*	*	*	*	*	*	*	*
8E/	.	.	16B/LL	.	8r	.	.	.	.	.	.	.	.	.	.	.
.	.	.	16B/	.	.	.	.	.	.	.	.	.	.	.	.	.
8E/	.	.	16B/	.	8gg\	.	.	.	.	.	.	.	.	.	.	.
.	.	.	16B/JJ	.	.	.	.	.	.	.	.	.	.	.	.	.
8BB/	6	.	16g/LL	.	16gg\LL	.	4B\	-cu-	4d\	-cu-	4b\	-cu-	4dd\	-cu-	.	.
.	.	.	16g/	.	16ff#\	.	.	.	.	.	.	.	.	.	.	.
8BB/J	.	.	16g/	.	16ee\	.	.	.	.	.	.	.	.	.	.	.
.	.	.	16g/JJ	.	16dd\JJ	.	.	.	.	.	.	.	.	.	.	.
*	*	*	*Xtremolo	*	*	*	*	*	*	*	*	*	*	*	*	*
!	!	!	!	!	!	!	!LO:LB:g=original	!	!	!	!	!	!LO:LB:g=original	!	!	!
=91	=91	=91	=91	=91	=91	=91	=91	=91	=91	=91	=91	=91	=91	=91	=91	=91
8C/L	6	.	8cc/L	.	8ee\L	.	8c\	-lo-	8e\	-lo-	8a\	-lo-	8ee\	-lo-	2.ryy	2.ryy
8C/	.	.	16b/L	.	16dd\L	.	8c\	-rum	8e\	-rum	8a\	-rum	8cc\	-rum	.	.
.	.	.	16a/JJ	.	16cc\JJ	.	.	.	.	.	.	.	.	.	.	.
8D/	4	.	4g/	.	4b\	.	4d\	.	2d\	a-	4g\	a-	4b\	a-	.	.
8D/	.	.	.	.	.	.	.	.	.	.	.	.	.	.	.	.
8DD/	3	.	4f#/	.	4a\	.	4D\	a-	.	.	4f#\	.	4a\	.	.	.
8DD/J	.	.	.	.	.	.	.	.	.	.	.	.	.	.	.	.
=92	=92	=92	=92	=92	=92	=92	=92	=92	=92	=92	=92	=92	=92	=92	=92	=92
4GG/	.	.	16g/LL	.	16b\LL	.	4G\	-men	4d\	-men	4g\	-men	4b\	-men	2.ryy	2.ryy
.	.	.	16b/	.	16dd\	.	.	.	.	.	.	.	.	.	.	.
.	.	.	16cc/	.	16cc\	.	.	.	.	.	.	.	.	.	.	.
.	.	.	16b/JJ	.	16b\JJ	.	.	.	.	.	.	.	.	.	.	.
*	*	*	*	*	*	*	*	*ij	*	*ij	*	*ij	*	*	*	*
4C/	6 5	.	8a\L	.	8a\L	.	4C/	a-	4e\	a-	(4g\	a-	2a\	a-	.	.
.	.	.	8gg\	.	8gg\	.	.	.	.	.	.	.	.	.	.	.
4D/	.	.	8a\	.	8a\	.	4D/	.	4d\	.	4f#\)	.	.	.	.	.
.	.	.	8ff#\J	.	8ff#\J	.	.	.	.	.	.	.	.	.	.	.
=93	=93	=93	=93	=93	=93	=93	=93	=93	=93	=93	=93	=93	=93	=93	=93	=93
4GG/	.	.	4gg 4b 4d\	.	4gg 4b 4d\	.	2G\	men	4d\	-men	2g\	-men	4b\	-men	2.ryy	2.ryy
*	*	*	*	*	*	*	*	*	*	*Xij	*	*Xij	*	*	*	*
4r	.	.	4r	.	4r	.	.	.	4r	.	.	.	4r	.	.	.
4r	.	.	4r	.	4r	.	4r	.	4r	.	4r	.	4r	.	.	.
==	==	==	==	==	==	==	==	==	==	==	==	==	==	==	==	==
*-	*-	*-	*-	*-	*-	*-	*-	*-	*-	*-	*-	*-	*-	*-	*-	*-
!!!system-decoration: [(g1)][(g2)][(g3)]s9
!!!RDF**kern: | = vertical stroke
!!!AIN: 1 alto 1 bass 2 cor 1 organ 1 soprn 1 tenor 2 violn
!!!ENC: Marta Opryszak
!!!END: 2021-11-25
!!!ENC: Marta Lawrence
!!!END: 2021-12-07
